;FLAVOR:UltiGCode
;TIME:1881
;MATERIAL:2639
;MATERIAL2:0
;NOZZLE_DIAMETER:0.4
;MINX:84.413
;MINY:84.428
;MINZ:0.27
;MAXX:138.588
;MAXY:138.572
;MAXZ:2.97
;Generated with Cura_SteamEngine 4.13.1
M82 ;absolute extrusion mode
G0 F3000 Y50 ;avoid prime blob
G92 E0
G92 E0
G10
;LAYER_COUNT:19
;LAYER:0
M107
G0 F4500 X92.129 Y92.561 Z0.27
;TYPE:SKIRT
G11
G1 F1800 X93.644 Y91.126 E0.1972
G1 X94.298 Y90.57 E0.27832
G1 X95.957 Y89.311 E0.47512
G1 X96.653 Y88.839 E0.55459
G1 X98.427 Y87.77 E0.75032
G1 X99.189 Y87.366 E0.83183
G1 X101.076 Y86.494 E1.02827
G1 X101.868 Y86.179 E1.10881
G1 X103.857 Y85.51 E1.30712
G1 X104.675 Y85.283 E1.38734
G1 X106.697 Y84.838 E1.58299
G1 X107.538 Y84.7 E1.66353
G1 X109.615 Y84.474 E1.86097
G1 X110.471 Y84.428 E1.94198
G1 X112.547 Y84.429 E2.13816
G1 X113.396 Y84.475 E2.21851
G1 X115.471 Y84.701 E2.41575
G1 X116.314 Y84.84 E2.49649
G1 X118.336 Y85.286 E2.69216
G1 X119.153 Y85.513 E2.7723
G1 X121.134 Y86.18 E2.96983
G1 X121.926 Y86.495 E3.05037
G1 X123.812 Y87.367 E3.24673
G1 X124.573 Y87.771 E3.32815
G1 X126.356 Y88.846 E3.5249
G1 X127.051 Y89.317 E3.60424
G1 X128.707 Y90.574 E3.8007
G1 X129.365 Y91.133 E3.88229
G1 X130.88 Y92.57 E4.07962
G1 X131.464 Y93.187 E4.1599
G1 X132.808 Y94.77 E4.35614
G1 X133.323 Y95.447 E4.43652
G1 X134.486 Y97.162 E4.63234
G1 X134.925 Y97.891 E4.71276
G1 X135.907 Y99.742 E4.91077
G1 X136.267 Y100.523 E4.99204
G1 X137.035 Y102.454 E5.18842
G1 X137.305 Y103.255 E5.2683
G1 X137.866 Y105.273 E5.46623
G1 X138.051 Y106.113 E5.54752
G1 X138.383 Y108.147 E5.74227
G1 X138.475 Y108.991 E5.8225
G1 X138.588 Y111.08 E6.0202
G1 X138.587 Y111.935 E6.101
G1 X138.473 Y114.019 E6.29823
G1 X138.382 Y114.86 E6.37817
G1 X138.049 Y116.896 E6.57313
G1 X137.864 Y117.736 E6.65441
G1 X137.302 Y119.756 E6.85255
G1 X137.031 Y120.558 E6.93255
G1 X136.263 Y122.487 E7.12876
G1 X135.902 Y123.269 E7.21015
G1 X134.924 Y125.11 E7.40715
G1 X134.488 Y125.833 E7.48694
G1 X133.319 Y127.558 E7.68385
G1 X132.802 Y128.239 E7.76465
G1 X131.458 Y129.821 E7.96082
G1 X130.871 Y130.439 E8.04136
G1 X129.356 Y131.874 E8.23856
G1 X128.702 Y132.43 E8.31968
G1 X127.043 Y133.689 E8.51649
G1 X126.347 Y134.161 E8.59596
G1 X124.575 Y135.229 E8.79148
G1 X123.814 Y135.633 E8.8729
G1 X121.925 Y136.506 E9.06955
G1 X121.132 Y136.821 E9.15018
G1 X119.143 Y137.49 E9.34849
G1 X118.327 Y137.716 E9.4285
G1 X116.313 Y138.16 E9.6234
G1 X115.47 Y138.299 E9.70414
G1 X113.385 Y138.526 E9.90233
G1 X112.529 Y138.572 E9.98334
G1 X110.453 Y138.571 E10.17952
G1 X109.604 Y138.525 E10.25987
G1 X107.529 Y138.299 E10.45712
G1 X106.686 Y138.16 E10.53786
G1 X104.664 Y137.714 E10.73353
G1 X103.847 Y137.487 E10.81366
G1 X101.866 Y136.82 E11.01119
G1 X101.074 Y136.505 E11.09174
G1 X99.188 Y135.633 E11.28809
G1 X98.427 Y135.229 E11.36952
G1 X96.644 Y134.154 E11.56626
G1 X95.949 Y133.683 E11.6456
G1 X94.293 Y132.426 E11.84207
G1 X93.635 Y131.867 E11.92366
G1 X92.12 Y130.43 E12.12099
G1 X91.536 Y129.813 E12.20127
G1 X90.192 Y128.23 E12.39751
G1 X89.674 Y127.548 E12.47844
G1 X88.506 Y125.823 E12.67531
G1 X88.071 Y125.1 E12.75504
G1 X87.094 Y123.259 E12.952
G1 X86.733 Y122.477 E13.03339
G1 X85.965 Y120.546 E13.22977
G1 X85.695 Y119.745 E13.30965
G1 X85.134 Y117.727 E13.50758
G1 X84.948 Y116.884 E13.58916
G1 X84.616 Y114.846 E13.78429
G1 X84.526 Y114.006 E13.86413
G1 X84.413 Y111.921 E14.06145
G1 X84.413 Y111.066 E14.14225
G1 X84.527 Y108.978 E14.33986
G1 X84.619 Y108.133 E14.42018
G1 X84.952 Y106.101 E14.61477
G1 X85.136 Y105.264 E14.69575
G1 X85.698 Y103.244 E14.89389
G1 X85.969 Y102.442 E14.97389
G1 X86.737 Y100.513 E15.1701
G1 X87.098 Y99.731 E15.25149
G1 X88.076 Y97.89 E15.44849
G1 X88.512 Y97.167 E15.52828
G1 X89.681 Y95.442 E15.72519
G1 X90.198 Y94.761 E15.80599
G1 X91.542 Y93.179 E16.00216
G1 X92.129 Y92.561 E16.08271
G0 F4500 X92.369 Y92.815
G1 F1800 X93.884 Y91.38 E16.2799
G1 X94.51 Y90.849 E16.35747
G1 X96.169 Y89.59 E16.55428
G1 X96.834 Y89.139 E16.63022
G1 X98.608 Y88.07 E16.82594
G1 X99.335 Y87.684 E16.90373
G1 X101.222 Y86.812 E17.10017
G1 X101.98 Y86.511 E17.17724
G1 X103.969 Y85.842 E17.37555
G1 X104.751 Y85.625 E17.45224
G1 X106.773 Y85.18 E17.64789
G1 X107.576 Y85.048 E17.72479
G1 X109.653 Y84.822 E17.92223
G1 X110.471 Y84.778 E17.99964
G1 X112.547 Y84.779 E18.19582
G1 X113.358 Y84.823 E18.27258
G1 X115.433 Y85.049 E18.46982
G1 X116.239 Y85.182 E18.54702
G1 X118.261 Y85.628 E18.74269
G1 X119.041 Y85.844 E18.81918
G1 X121.022 Y86.511 E19.01671
G1 X121.779 Y86.813 E19.09373
G1 X123.665 Y87.685 E19.29008
G1 X124.392 Y88.071 E19.36787
G1 X126.175 Y89.146 E19.56461
G1 X126.84 Y89.596 E19.64049
G1 X128.496 Y90.853 E19.83696
G1 X129.125 Y91.387 E19.91493
G1 X130.64 Y92.824 E20.11226
G1 X131.197 Y93.414 E20.18894
G1 X132.541 Y94.997 E20.38517
G1 X133.033 Y95.644 E20.46199
G1 X134.196 Y97.359 E20.6578
G1 X134.615 Y98.055 E20.73457
G1 X135.597 Y99.906 E20.93259
G1 X135.942 Y100.652 E21.01026
G1 X136.71 Y102.583 E21.20664
G1 X136.968 Y103.348 E21.28293
G1 X137.529 Y105.366 E21.48086
G1 X137.706 Y106.17 E21.55866
G1 X138.038 Y108.204 E21.75342
G1 X138.125 Y109.01 E21.83003
G1 X138.238 Y111.099 E22.02773
G1 X138.238 Y111.916 E22.10493
G1 X138.124 Y114 E22.30217
G1 X138.036 Y114.804 E22.3786
G1 X137.703 Y116.84 E22.57356
G1 X137.527 Y117.642 E22.65115
G1 X136.965 Y119.662 E22.84929
G1 X136.706 Y120.428 E22.9257
G1 X135.938 Y122.357 E23.12191
G1 X135.592 Y123.104 E23.1997
G1 X134.614 Y124.945 E23.3967
G1 X134.198 Y125.637 E23.473
G1 X133.029 Y127.362 E23.66992
G1 X132.535 Y128.012 E23.74707
G1 X131.191 Y129.594 E23.94324
G1 X130.631 Y130.185 E24.02018
G1 X129.116 Y131.62 E24.21738
G1 X128.49 Y132.151 E24.29495
G1 X126.831 Y133.41 E24.49176
G1 X126.166 Y133.861 E24.56769
G1 X124.394 Y134.929 E24.76321
G1 X123.667 Y135.315 E24.84099
G1 X121.778 Y136.188 E25.03764
G1 X121.02 Y136.489 E25.11471
G1 X119.031 Y137.158 E25.31302
G1 X118.252 Y137.375 E25.38944
G1 X116.238 Y137.819 E25.58433
G1 X115.432 Y137.951 E25.66152
G1 X113.347 Y138.178 E25.85971
G1 X112.529 Y138.222 E25.93713
G1 X110.453 Y138.221 E26.13331
G1 X109.642 Y138.177 E26.21006
G1 X107.567 Y137.951 E26.40731
G1 X106.761 Y137.818 E26.4845
G1 X104.739 Y137.372 E26.68018
G1 X103.959 Y137.156 E26.75666
G1 X101.978 Y136.489 E26.95419
G1 X101.221 Y136.187 E27.03121
G1 X99.335 Y135.315 E27.22756
G1 X98.608 Y134.929 E27.30535
G1 X96.825 Y133.854 E27.5021
G1 X96.16 Y133.404 E27.57798
G1 X94.504 Y132.147 E27.77445
G1 X93.875 Y131.613 E27.85242
G1 X92.36 Y130.176 E28.04974
G1 X91.803 Y129.586 E28.12642
G1 X90.459 Y128.003 E28.32266
G1 X89.964 Y127.352 E28.39994
G1 X88.796 Y125.627 E28.59681
G1 X88.38 Y124.935 E28.67311
G1 X87.403 Y123.094 E28.87006
G1 X87.058 Y122.348 E28.94773
G1 X86.29 Y120.417 E29.14412
G1 X86.032 Y119.652 E29.22041
G1 X85.471 Y117.634 E29.41834
G1 X85.294 Y116.828 E29.49632
G1 X84.962 Y114.79 E29.69145
G1 X84.875 Y113.987 E29.76778
G1 X84.762 Y111.902 E29.9651
G1 X84.762 Y111.085 E30.04231
G1 X84.876 Y108.997 E30.23992
G1 X84.964 Y108.19 E30.31663
G1 X85.297 Y106.158 E30.51122
G1 X85.473 Y105.358 E30.58863
G1 X86.035 Y103.338 E30.78677
G1 X86.294 Y102.572 E30.86318
G1 X87.062 Y100.643 E31.05939
G1 X87.408 Y99.896 E31.13718
G1 X88.386 Y98.055 E31.33418
G1 X88.802 Y97.363 E31.41048
G1 X89.971 Y95.638 E31.6074
G1 X90.465 Y94.988 E31.68455
G1 X91.809 Y93.406 E31.88072
G1 X92.369 Y92.815 E31.95766
G0 F4500 X92.61 Y93.069
G1 F1800 X94.125 Y91.634 E32.15485
G1 X94.722 Y91.127 E32.22887
G1 X96.381 Y89.868 E32.42568
G1 X97.015 Y89.439 E32.49802
G1 X98.789 Y88.37 E32.69375
G1 X99.482 Y88.002 E32.7679
G1 X101.369 Y87.13 E32.96434
G1 X102.092 Y86.842 E33.03788
G1 X104.081 Y86.173 E33.23619
G1 X104.826 Y85.967 E33.30923
G1 X106.848 Y85.522 E33.50488
G1 X107.614 Y85.396 E33.57824
G1 X109.691 Y85.17 E33.77568
G1 X110.47 Y85.128 E33.8494
G1 X112.546 Y85.129 E34.04558
G1 X113.32 Y85.171 E34.11883
G1 X115.395 Y85.397 E34.31608
G1 X116.163 Y85.523 E34.38963
G1 X118.185 Y85.969 E34.5853
G1 X118.93 Y86.176 E34.65837
G1 X120.911 Y86.843 E34.8559
G1 X121.632 Y87.13 E34.92923
G1 X123.518 Y88.002 E35.12559
G1 X124.212 Y88.37 E35.19982
G1 X125.995 Y89.445 E35.39657
G1 X126.628 Y89.875 E35.46889
G1 X128.284 Y91.132 E35.66535
G1 X128.884 Y91.641 E35.73971
G1 X130.399 Y93.078 E35.93704
G1 X130.931 Y93.64 E36.01017
G1 X132.275 Y95.223 E36.2064
G1 X132.743 Y95.84 E36.27959
G1 X133.906 Y97.555 E36.4754
G1 X134.306 Y98.219 E36.54866
G1 X135.288 Y100.07 E36.74667
G1 X135.617 Y100.781 E36.8207
G1 X136.385 Y102.712 E37.01708
G1 X136.631 Y103.442 E37.08988
G1 X137.192 Y105.46 E37.28781
G1 X137.36 Y106.226 E37.36192
G1 X137.692 Y108.26 E37.55668
G1 X137.776 Y109.028 E37.62969
G1 X137.889 Y111.117 E37.82739
G1 X137.888 Y111.897 E37.9011
G1 X137.774 Y113.981 E38.09833
G1 X137.691 Y114.747 E38.17114
G1 X137.358 Y116.783 E38.3661
G1 X137.189 Y117.548 E38.44013
G1 X136.627 Y119.568 E38.63827
G1 X136.381 Y120.299 E38.71116
G1 X135.613 Y122.228 E38.90737
G1 X135.283 Y122.94 E38.98153
G1 X134.305 Y124.781 E39.17853
G1 X133.909 Y125.44 E39.25118
G1 X132.74 Y127.165 E39.4481
G1 X132.268 Y127.785 E39.52173
G1 X130.924 Y129.367 E39.7179
G1 X130.39 Y129.931 E39.7913
G1 X128.875 Y131.366 E39.98849
G1 X128.278 Y131.873 E40.06251
G1 X126.619 Y133.132 E40.25932
G1 X125.986 Y133.561 E40.33158
G1 X124.214 Y134.629 E40.5271
G1 X123.52 Y134.997 E40.60133
G1 X121.631 Y135.87 E40.79798
G1 X120.908 Y136.158 E40.87153
G1 X118.919 Y136.827 E41.06983
G1 X118.177 Y137.033 E41.14261
G1 X116.163 Y137.477 E41.3375
G1 X115.395 Y137.603 E41.41105
G1 X113.31 Y137.83 E41.60924
G1 X112.53 Y137.872 E41.68306
G1 X110.454 Y137.871 E41.87924
G1 X109.68 Y137.829 E41.95249
G1 X107.605 Y137.603 E42.14974
G1 X106.837 Y137.477 E42.22328
G1 X104.815 Y137.031 E42.41896
G1 X104.07 Y136.824 E42.49203
G1 X102.089 Y136.157 E42.68956
G1 X101.368 Y135.87 E42.76289
G1 X99.482 Y134.998 E42.95925
G1 X98.788 Y134.63 E43.03348
G1 X97.005 Y133.555 E43.23023
G1 X96.372 Y133.125 E43.30254
G1 X94.716 Y131.868 E43.49901
G1 X94.116 Y131.359 E43.57337
G1 X92.601 Y129.922 E43.77069
G1 X92.069 Y129.36 E43.84382
G1 X90.725 Y127.777 E44.04006
G1 X90.254 Y127.156 E44.11371
G1 X89.086 Y125.431 E44.31058
G1 X88.689 Y124.771 E44.38336
G1 X87.712 Y122.93 E44.58032
G1 X87.383 Y122.219 E44.65435
G1 X86.615 Y120.288 E44.85074
G1 X86.369 Y119.558 E44.92353
G1 X85.808 Y117.54 E45.12147
G1 X85.639 Y116.772 E45.19578
G1 X85.307 Y114.734 E45.39091
G1 X85.225 Y113.968 E45.46371
G1 X85.112 Y111.883 E45.66103
G1 X85.112 Y111.104 E45.73464
G1 X85.226 Y109.016 E45.93225
G1 X85.309 Y108.247 E46.00535
G1 X85.642 Y106.215 E46.19993
G1 X85.811 Y105.452 E46.27378
G1 X86.373 Y103.432 E46.47192
G1 X86.619 Y102.701 E46.54481
G1 X87.387 Y100.772 E46.74102
G1 X87.717 Y100.06 E46.81518
G1 X88.695 Y98.219 E47.01218
G1 X89.091 Y97.56 E47.08483
G1 X90.26 Y95.835 E47.28175
G1 X90.732 Y95.215 E47.35538
G1 X92.076 Y93.633 E47.55155
G1 X92.61 Y93.069 E47.62495
G0 F4500 X92.851 Y93.323
G1 F1800 X94.366 Y91.888 E47.82214
G1 X94.933 Y91.406 E47.89247
G1 X96.592 Y90.147 E48.08928
G1 X97.195 Y89.738 E48.15813
G1 X98.969 Y88.669 E48.35386
G1 X99.629 Y88.32 E48.42441
G1 X101.516 Y87.448 E48.62085
G1 X102.203 Y87.174 E48.69075
G1 X104.192 Y86.505 E48.88906
G1 X104.901 Y86.309 E48.95857
G1 X106.923 Y85.864 E49.15422
G1 X107.652 Y85.744 E49.22404
G1 X109.729 Y85.518 E49.42148
G1 X110.47 Y85.478 E49.4916
G1 X112.546 Y85.479 E49.68778
G1 X113.282 Y85.519 E49.75744
G1 X115.357 Y85.745 E49.95469
G1 X116.088 Y85.865 E50.02469
G1 X118.11 Y86.311 E50.22036
G1 X118.818 Y86.508 E50.28981
G1 X120.799 Y87.175 E50.48734
G1 X121.485 Y87.448 E50.55711
G1 X123.371 Y88.32 E50.75347
G1 X124.031 Y88.67 E50.82406
G1 X125.814 Y89.745 E51.02081
G1 X126.416 Y90.154 E51.08959
G1 X128.072 Y91.411 E51.28606
G1 X128.643 Y91.895 E51.35679
G1 X130.158 Y93.332 E51.55412
G1 X130.664 Y93.867 E51.62371
G1 X132.008 Y95.45 E51.81995
G1 X132.454 Y96.036 E51.88954
G1 X133.617 Y97.751 E52.08536
G1 X133.997 Y98.383 E52.15504
G1 X134.979 Y100.234 E52.35306
G1 X135.292 Y100.911 E52.42354
G1 X136.06 Y102.842 E52.61992
G1 X136.294 Y103.536 E52.68913
G1 X136.855 Y105.554 E52.88706
G1 X137.015 Y106.283 E52.9576
G1 X137.347 Y108.317 E53.15235
G1 X137.426 Y109.047 E53.22174
G1 X137.539 Y111.136 E53.41944
G1 X137.539 Y111.878 E53.48956
G1 X137.425 Y113.962 E53.68679
G1 X137.346 Y114.691 E53.75608
G1 X137.013 Y116.727 E53.95104
G1 X136.852 Y117.454 E54.02141
G1 X136.29 Y119.474 E54.21955
G1 X136.056 Y120.17 E54.28894
G1 X135.288 Y122.099 E54.48515
G1 X134.974 Y122.776 E54.55567
G1 X133.996 Y124.617 E54.75267
G1 X133.619 Y125.244 E54.82181
G1 X132.45 Y126.969 E55.01872
G1 X132.001 Y127.559 E55.08879
G1 X130.657 Y129.141 E55.28495
G1 X130.149 Y129.677 E55.35474
G1 X128.634 Y131.112 E55.55194
G1 X128.067 Y131.594 E55.62226
G1 X126.408 Y132.853 E55.81907
G1 X125.805 Y133.261 E55.88787
G1 X124.033 Y134.329 E56.08339
G1 X123.373 Y134.679 E56.15399
G1 X121.484 Y135.552 E56.35064
G1 X120.797 Y135.826 E56.42053
G1 X118.808 Y136.495 E56.61884
G1 X118.101 Y136.691 E56.68817
G1 X116.087 Y137.135 E56.88307
G1 X115.357 Y137.255 E56.95298
G1 X113.272 Y137.482 E57.15117
G1 X112.53 Y137.522 E57.22139
G1 X110.454 Y137.521 E57.41758
G1 X109.718 Y137.481 E57.48723
G1 X107.643 Y137.255 E57.68448
G1 X106.912 Y137.135 E57.75448
G1 X104.89 Y136.689 E57.95015
G1 X104.182 Y136.492 E58.0196
G1 X102.201 Y135.825 E58.21713
G1 X101.515 Y135.552 E58.2869
G1 X99.629 Y134.68 E58.48326
G1 X98.969 Y134.33 E58.55386
G1 X97.186 Y133.255 E58.75061
G1 X96.584 Y132.846 E58.81938
G1 X94.928 Y131.589 E59.01585
G1 X94.357 Y131.105 E59.08659
G1 X92.842 Y129.668 E59.28391
G1 X92.336 Y129.133 E59.3535
G1 X90.992 Y127.55 E59.54974
G1 X90.544 Y126.96 E59.61975
G1 X89.376 Y125.235 E59.81661
G1 X88.998 Y124.607 E59.88588
G1 X88.021 Y122.766 E60.08283
G1 X87.708 Y122.089 E60.15332
G1 X86.94 Y120.158 E60.3497
G1 X86.706 Y119.464 E60.41891
G1 X86.145 Y117.446 E60.61684
G1 X85.985 Y116.715 E60.68756
G1 X85.653 Y114.677 E60.88269
G1 X85.574 Y113.949 E60.95189
G1 X85.461 Y111.864 E61.14921
G1 X85.461 Y111.123 E61.21923
G1 X85.575 Y109.035 E61.41684
G1 X85.655 Y108.303 E61.48643
G1 X85.988 Y106.271 E61.68101
G1 X86.148 Y105.546 E61.75118
G1 X86.71 Y103.526 E61.94932
G1 X86.944 Y102.83 E62.01871
G1 X87.712 Y100.901 E62.21491
G1 X88.026 Y100.224 E62.28543
G1 X89.004 Y98.383 E62.48243
G1 X89.381 Y97.756 E62.55157
G1 X90.55 Y96.031 E62.74849
G1 X90.999 Y95.441 E62.81855
G1 X92.343 Y93.859 E63.01472
G1 X92.851 Y93.323 E63.08451
G0 F4500 X93.091 Y93.577
G1 F1800 X94.606 Y92.142 E63.2817
G1 X95.145 Y91.685 E63.34848
G1 X96.804 Y90.426 E63.54529
G1 X97.376 Y90.038 E63.61061
G1 X99.15 Y88.969 E63.80634
G1 X99.776 Y88.637 E63.8733
G1 X101.663 Y87.765 E64.06974
G1 X102.315 Y87.506 E64.13604
G1 X104.304 Y86.837 E64.33434
G1 X104.976 Y86.65 E64.40026
G1 X106.998 Y86.205 E64.59591
G1 X107.69 Y86.092 E64.66217
G1 X109.767 Y85.866 E64.85961
G1 X110.47 Y85.828 E64.92614
G1 X112.546 Y85.829 E65.12232
G1 X113.244 Y85.867 E65.18838
G1 X115.319 Y86.093 E65.38562
G1 X116.013 Y86.207 E65.45209
G1 X118.035 Y86.653 E65.64776
G1 X118.706 Y86.839 E65.71356
G1 X120.687 Y87.506 E65.91109
G1 X121.338 Y87.766 E65.97734
G1 X123.224 Y88.638 E66.17369
G1 X123.85 Y88.97 E66.24065
G1 X125.633 Y90.045 E66.4374
G1 X126.205 Y90.433 E66.50272
G1 X127.861 Y91.69 E66.69919
G1 X128.402 Y92.149 E66.76623
G1 X129.917 Y93.586 E66.96356
G1 X130.397 Y94.093 E67.02954
G1 X131.741 Y95.676 E67.22577
G1 X132.164 Y96.233 E67.29187
G1 X133.327 Y97.948 E67.48769
G1 X133.688 Y98.547 E67.55378
G1 X134.67 Y100.398 E67.75179
G1 X134.967 Y101.04 E67.81863
G1 X135.735 Y102.971 E68.01502
G1 X135.956 Y103.63 E68.0807
G1 X136.517 Y105.648 E68.27863
G1 X136.669 Y106.339 E68.34549
G1 X137.001 Y108.373 E68.54025
G1 X137.077 Y109.066 E68.60613
G1 X137.19 Y111.155 E68.80383
G1 X137.189 Y111.859 E68.87036
G1 X137.075 Y113.943 E69.06759
G1 X137 Y114.634 E69.13327
G1 X136.667 Y116.67 E69.32823
G1 X136.515 Y117.361 E69.39509
G1 X135.953 Y119.381 E69.59323
G1 X135.731 Y120.04 E69.65895
G1 X134.963 Y121.969 E69.85515
G1 X134.665 Y122.612 E69.92213
G1 X133.687 Y124.453 E70.11913
G1 X133.329 Y125.047 E70.18467
G1 X132.16 Y126.772 E70.38158
G1 X131.735 Y127.332 E70.44802
