;FLAVOR:UltiGCode
;TIME:1540
;MATERIAL:2526
;MATERIAL2:0
;NOZZLE_DIAMETER:0.4
;MINX:84.413
;MINY:84.428
;MINZ:0.27
;MAXX:138.588
;MAXY:138.572
;MAXZ:2.97
;Generated with Cura_SteamEngine 4.13.1
M82 ;absolute extrusion mode
G0 F3000 Y50 ;avoid prime blob
G92 E0
G92 E0
G10
;LAYER_COUNT:19
;LAYER:0
M107
G0 F4500 X92.129 Y92.561 Z0.27
;TYPE:SKIRT
G11
G1 F1800 X93.644 Y91.126 E0.1972
G1 X94.298 Y90.57 E0.27832
G1 X95.957 Y89.311 E0.47512
G1 X96.653 Y88.839 E0.55459
G1 X98.427 Y87.77 E0.75032
G1 X99.189 Y87.366 E0.83183
G1 X101.076 Y86.494 E1.02827
G1 X101.868 Y86.179 E1.10881
G1 X103.857 Y85.51 E1.30712
G1 X104.675 Y85.283 E1.38734
G1 X106.697 Y84.838 E1.58299
G1 X107.538 Y84.7 E1.66353
G1 X109.615 Y84.474 E1.86097
G1 X110.471 Y84.428 E1.94198
G1 X112.547 Y84.429 E2.13816
G1 X113.396 Y84.475 E2.21851
G1 X115.471 Y84.701 E2.41575
G1 X116.314 Y84.84 E2.49649
G1 X118.336 Y85.286 E2.69216
G1 X119.153 Y85.513 E2.7723
G1 X121.134 Y86.18 E2.96983
G1 X121.926 Y86.495 E3.05037
G1 X123.812 Y87.367 E3.24673
G1 X124.573 Y87.771 E3.32815
G1 X126.356 Y88.846 E3.5249
G1 X127.051 Y89.317 E3.60424
G1 X128.707 Y90.574 E3.8007
G1 X129.365 Y91.133 E3.88229
G1 X130.88 Y92.57 E4.07962
G1 X131.464 Y93.187 E4.1599
G1 X132.808 Y94.77 E4.35614
G1 X133.321 Y95.445 E4.43626
G1 X134.485 Y97.16 E4.63213
G1 X134.927 Y97.894 E4.7131
G1 X135.908 Y99.745 E4.91107
G1 X136.267 Y100.522 E4.99195
G1 X137.034 Y102.45 E5.18804
G1 X137.304 Y103.251 E5.26791
G1 X137.866 Y105.272 E5.46615
G1 X138.051 Y106.113 E5.54752
G1 X138.383 Y108.147 E5.74228
G1 X138.475 Y108.991 E5.82251
G1 X138.588 Y111.08 E6.02021
G1 X138.587 Y111.935 E6.101
G1 X138.473 Y114.019 E6.29824
G1 X138.382 Y114.86 E6.37818
G1 X138.049 Y116.896 E6.57313
G1 X137.864 Y117.736 E6.65442
G1 X137.302 Y119.756 E6.85256
G1 X137.031 Y120.558 E6.93256
G1 X136.263 Y122.487 E7.12876
G1 X135.903 Y123.266 E7.20986
G1 X134.926 Y125.107 E7.40681
G1 X134.487 Y125.835 E7.48715
G1 X133.317 Y127.56 E7.68412
G1 X132.802 Y128.239 E7.76466
G1 X131.458 Y129.821 E7.96082
G1 X130.871 Y130.439 E8.04137
G1 X129.356 Y131.874 E8.23856
G1 X128.702 Y132.43 E8.31968
G1 X127.043 Y133.689 E8.51649
G1 X126.347 Y134.161 E8.59596
G1 X124.575 Y135.229 E8.79148
G1 X123.814 Y135.633 E8.8729
G1 X121.925 Y136.506 E9.06955
G1 X121.132 Y136.821 E9.15018
G1 X119.143 Y137.49 E9.34849
G1 X118.327 Y137.716 E9.42851
G1 X116.313 Y138.16 E9.6234
G1 X115.47 Y138.299 E9.70414
G1 X113.385 Y138.526 E9.90234
G1 X112.529 Y138.572 E9.98335
G1 X110.453 Y138.571 E10.17953
G1 X109.604 Y138.525 E10.25988
G1 X107.529 Y138.299 E10.45712
G1 X106.686 Y138.16 E10.53786
G1 X104.664 Y137.714 E10.73353
G1 X103.847 Y137.487 E10.81367
G1 X101.866 Y136.82 E11.0112
G1 X101.074 Y136.505 E11.09174
G1 X99.188 Y135.633 E11.2881
G1 X98.427 Y135.229 E11.36952
G1 X96.644 Y134.154 E11.56627
G1 X95.949 Y133.683 E11.64561
G1 X94.293 Y132.426 E11.84207
G1 X93.635 Y131.867 E11.92366
G1 X92.12 Y130.43 E12.12099
G1 X91.536 Y129.813 E12.20127
G1 X90.192 Y128.23 E12.39751
G1 X89.674 Y127.548 E12.47844
G1 X88.506 Y125.823 E12.67531
G1 X88.071 Y125.1 E12.75504
G1 X87.094 Y123.259 E12.952
G1 X86.733 Y122.477 E13.03339
G1 X85.965 Y120.546 E13.22978
G1 X85.695 Y119.745 E13.30965
G1 X85.134 Y117.727 E13.50759
G1 X84.948 Y116.884 E13.58917
G1 X84.616 Y114.846 E13.7843
G1 X84.526 Y114.006 E13.86413
G1 X84.413 Y111.921 E14.06145
G1 X84.413 Y111.066 E14.14225
G1 X84.527 Y108.978 E14.33986
G1 X84.619 Y108.133 E14.42018
G1 X84.952 Y106.101 E14.61477
G1 X85.136 Y105.264 E14.69575
G1 X85.699 Y103.241 E14.89419
G1 X85.97 Y102.438 E14.97428
G1 X86.737 Y100.512 E15.17019
G1 X87.098 Y99.731 E15.2515
G1 X88.076 Y97.89 E15.4485
G1 X88.512 Y97.167 E15.52828
G1 X89.681 Y95.442 E15.7252
G1 X90.198 Y94.761 E15.806
G1 X91.542 Y93.179 E16.00217
G1 X92.129 Y92.561 E16.08271
G0 F4500 X92.369 Y92.815
G1 F1800 X93.884 Y91.38 E16.27991
G1 X94.51 Y90.849 E16.35748
G1 X96.169 Y89.59 E16.55429
G1 X96.834 Y89.139 E16.63022
G1 X98.608 Y88.07 E16.82595
G1 X99.335 Y87.684 E16.90373
G1 X101.222 Y86.812 E17.10017
G1 X101.98 Y86.511 E17.17725
G1 X103.969 Y85.842 E17.37555
G1 X104.751 Y85.625 E17.45225
G1 X106.773 Y85.18 E17.6479
G1 X107.576 Y85.048 E17.7248
G1 X109.653 Y84.822 E17.92223
G1 X110.471 Y84.778 E17.99965
G1 X112.547 Y84.779 E18.19583
G1 X113.358 Y84.823 E18.27258
G1 X115.433 Y85.049 E18.46983
G1 X116.239 Y85.182 E18.54703
G1 X118.261 Y85.628 E18.7427
G1 X119.041 Y85.844 E18.81918
G1 X121.022 Y86.511 E19.01671
G1 X121.779 Y86.813 E19.09373
G1 X123.665 Y87.685 E19.29009
G1 X124.392 Y88.071 E19.36787
G1 X126.175 Y89.146 E19.56462
G1 X126.84 Y89.596 E19.6405
G1 X128.496 Y90.853 E19.83697
G1 X129.125 Y91.387 E19.91494
G1 X130.64 Y92.824 E20.11227
G1 X131.197 Y93.414 E20.18894
G1 X132.541 Y94.997 E20.38518
G1 X133.031 Y95.641 E20.46165
G1 X134.195 Y97.356 E20.65752
G1 X134.618 Y98.058 E20.73497
G1 X135.599 Y99.909 E20.93294
G1 X135.942 Y100.651 E21.01019
G1 X136.709 Y102.579 E21.20627
G1 X136.967 Y103.345 E21.28266
G1 X137.529 Y105.366 E21.48089
G1 X137.706 Y106.17 E21.55868
G1 X138.038 Y108.204 E21.75344
G1 X138.125 Y109.01 E21.83005
G1 X138.238 Y111.099 E22.02775
G1 X138.238 Y111.916 E22.10496
G1 X138.124 Y114 E22.30219
G1 X138.036 Y114.804 E22.37862
G1 X137.703 Y116.84 E22.57358
G1 X137.527 Y117.642 E22.65117
G1 X136.965 Y119.662 E22.84931
G1 X136.706 Y120.428 E22.92572
G1 X135.938 Y122.357 E23.12193
G1 X135.594 Y123.101 E23.19939
G1 X134.617 Y124.942 E23.39635
G1 X134.198 Y125.639 E23.4732
G1 X133.028 Y127.364 E23.67017
G1 X132.535 Y128.012 E23.74711
G1 X131.191 Y129.594 E23.94328
G1 X130.631 Y130.185 E24.02022
G1 X129.116 Y131.62 E24.21741
G1 X128.49 Y132.151 E24.29499
G1 X126.831 Y133.41 E24.4918
G1 X126.166 Y133.861 E24.56773
G1 X124.394 Y134.929 E24.76324
G1 X123.667 Y135.315 E24.84103
G1 X121.778 Y136.188 E25.03768
G1 X121.02 Y136.489 E25.11475
G1 X119.031 Y137.158 E25.31306
G1 X118.252 Y137.375 E25.38948
G1 X116.238 Y137.819 E25.58437
G1 X115.432 Y137.951 E25.66155
G1 X113.347 Y138.178 E25.85975
G1 X112.529 Y138.222 E25.93716
G1 X110.453 Y138.221 E26.13335
G1 X109.642 Y138.177 E26.2101
G1 X107.567 Y137.951 E26.40735
G1 X106.761 Y137.818 E26.48454
G1 X104.739 Y137.372 E26.68021
G1 X103.959 Y137.156 E26.7567
G1 X101.978 Y136.489 E26.95423
G1 X101.221 Y136.187 E27.03125
G1 X99.335 Y135.315 E27.2276
G1 X98.608 Y134.929 E27.30539
G1 X96.825 Y133.854 E27.50214
G1 X96.16 Y133.404 E27.57802
G1 X94.504 Y132.147 E27.77448
G1 X93.875 Y131.613 E27.85246
G1 X92.36 Y130.176 E28.04978
G1 X91.803 Y129.586 E28.12646
G1 X90.459 Y128.003 E28.3227
G1 X89.964 Y127.352 E28.39998
G1 X88.796 Y125.627 E28.59685
G1 X88.38 Y124.935 E28.67315
G1 X87.403 Y123.094 E28.8701
G1 X87.058 Y122.348 E28.94777
G1 X86.29 Y120.417 E29.14415
G1 X86.032 Y119.652 E29.22045
G1 X85.471 Y117.634 E29.41838
G1 X85.294 Y116.828 E29.49636
G1 X84.962 Y114.79 E29.69149
G1 X84.875 Y113.987 E29.76782
G1 X84.762 Y111.902 E29.96514
G1 X84.762 Y111.085 E30.04235
G1 X84.876 Y108.997 E30.23996
G1 X84.964 Y108.19 E30.31667
G1 X85.297 Y106.158 E30.51126
G1 X85.474 Y105.357 E30.58878
G1 X86.037 Y103.334 E30.78722
G1 X86.295 Y102.568 E30.8636
G1 X87.062 Y100.642 E31.05951
G1 X87.408 Y99.896 E31.13722
G1 X88.386 Y98.055 E31.33422
G1 X88.802 Y97.363 E31.41052
G1 X89.971 Y95.638 E31.60744
G1 X90.465 Y94.988 E31.68459
G1 X91.809 Y93.406 E31.88075
G1 X92.369 Y92.815 E31.95769
G0 F4500 X92.61 Y93.069
G1 F1800 X94.125 Y91.634 E32.15489
G1 X94.722 Y91.127 E32.2289
G1 X96.381 Y89.868 E32.42571
G1 X97.015 Y89.439 E32.49805
G1 X98.789 Y88.37 E32.69378
G1 X99.482 Y88.002 E32.76793
G1 X101.369 Y87.13 E32.96437
G1 X102.092 Y86.842 E33.03792
G1 X104.081 Y86.173 E33.23622
G1 X104.826 Y85.967 E33.30927
G1 X106.848 Y85.522 E33.50492
G1 X107.614 Y85.396 E33.57828
G1 X109.691 Y85.17 E33.77571
G1 X110.47 Y85.128 E33.84944
G1 X112.546 Y85.129 E34.04562
G1 X113.32 Y85.171 E34.11887
G1 X115.395 Y85.397 E34.31612
G1 X116.163 Y85.523 E34.38966
G1 X118.185 Y85.969 E34.58534
G1 X118.93 Y86.176 E34.6584
G1 X120.911 Y86.843 E34.85594
G1 X121.632 Y87.13 E34.92927
G1 X123.518 Y88.002 E35.12562
G1 X124.212 Y88.37 E35.19986
G1 X125.995 Y89.445 E35.39661
G1 X126.628 Y89.875 E35.46892
G1 X128.284 Y91.132 E35.66539
G1 X128.884 Y91.641 E35.73974
G1 X130.399 Y93.078 E35.93707
G1 X130.931 Y93.64 E36.0102
G1 X132.275 Y95.223 E36.20644
G1 X132.742 Y95.838 E36.27941
G1 X133.906 Y97.553 E36.47528
G1 X134.309 Y98.222 E36.54909
G1 X135.29 Y100.073 E36.74706
G1 X135.617 Y100.781 E36.82075
G1 X136.384 Y102.709 E37.01684
G1 X136.63 Y103.439 E37.08963
G1 X137.192 Y105.46 E37.28787
G1 X137.36 Y106.226 E37.36197
G1 X137.692 Y108.26 E37.55673
G1 X137.776 Y109.028 E37.62974
G1 X137.889 Y111.117 E37.82744
G1 X137.888 Y111.897 E37.90115
G1 X137.774 Y113.981 E38.09838
G1 X137.691 Y114.747 E38.17119
G1 X137.358 Y116.783 E38.36615
G1 X137.189 Y117.548 E38.44018
G1 X136.627 Y119.568 E38.63832
G1 X136.381 Y120.299 E38.71121
G1 X135.613 Y122.228 E38.90742
G1 X135.285 Y122.937 E38.98124
G1 X134.308 Y124.778 E39.1782
G1 X133.908 Y125.443 E39.25153
G1 X132.738 Y127.168 E39.4485
G1 X132.268 Y127.785 E39.5218
G1 X130.924 Y129.367 E39.71796
G1 X130.39 Y129.931 E39.79136
G1 X128.875 Y131.366 E39.98856
G1 X128.278 Y131.873 E40.06257
G1 X126.619 Y133.132 E40.25938
G1 X125.986 Y133.561 E40.33164
G1 X124.214 Y134.629 E40.52716
G1 X123.52 Y134.997 E40.60139
G1 X121.631 Y135.87 E40.79805
G1 X120.908 Y136.158 E40.87159
G1 X118.919 Y136.827 E41.0699
G1 X118.177 Y137.033 E41.14267
G1 X116.163 Y137.477 E41.33756
G1 X115.395 Y137.603 E41.41111
G1 X113.31 Y137.83 E41.60931
G1 X112.53 Y137.872 E41.68312
G1 X110.454 Y137.871 E41.8793
G1 X109.68 Y137.829 E41.95256
G1 X107.605 Y137.603 E42.1498
G1 X106.837 Y137.477 E42.22335
G1 X104.815 Y137.031 E42.41902
G1 X104.07 Y136.824 E42.49209
G1 X102.089 Y136.157 E42.68962
G1 X101.368 Y135.87 E42.76296
G1 X99.482 Y134.998 E42.95931
G1 X98.788 Y134.63 E43.03354
G1 X97.005 Y133.555 E43.23029
G1 X96.372 Y133.125 E43.30261
G1 X94.716 Y131.868 E43.49908
G1 X94.116 Y131.359 E43.57343
G1 X92.601 Y129.922 E43.77076
G1 X92.069 Y129.36 E43.84389
G1 X90.725 Y127.777 E44.04012
G1 X90.254 Y127.156 E44.11378
G1 X89.086 Y125.431 E44.31064
G1 X88.689 Y124.771 E44.38343
G1 X87.712 Y122.93 E44.58038
G1 X87.383 Y122.219 E44.65442
G1 X86.615 Y120.288 E44.8508
G1 X86.369 Y119.558 E44.9236
G1 X85.808 Y117.54 E45.12153
G1 X85.639 Y116.772 E45.19584
G1 X85.307 Y114.734 E45.39097
G1 X85.225 Y113.968 E45.46377
G1 X85.112 Y111.883 E45.66109
G1 X85.112 Y111.104 E45.73471
G1 X85.226 Y109.016 E45.93232
G1 X85.309 Y108.247 E46.00541
G1 X85.642 Y106.215 E46.2
G1 X85.811 Y105.451 E46.27394
G1 X86.374 Y103.428 E46.47238
G1 X86.62 Y102.697 E46.54526
G1 X87.387 Y100.771 E46.74117
G1 X87.717 Y100.06 E46.81525
G1 X88.695 Y98.219 E47.01225
G1 X89.091 Y97.56 E47.0849
G1 X90.26 Y95.835 E47.28182
G1 X90.732 Y95.215 E47.35545
G1 X92.076 Y93.633 E47.55162
G1 X92.61 Y93.069 E47.62502
G0 F4500 X92.851 Y93.323
G1 F1800 X94.366 Y91.888 E47.82221
G1 X94.933 Y91.406 E47.89254
G1 X96.592 Y90.147 E48.08935
G1 X97.195 Y89.738 E48.1582
G1 X98.969 Y88.669 E48.35393
G1 X99.629 Y88.32 E48.42448
G1 X101.516 Y87.448 E48.62093
G1 X102.203 Y87.174 E48.69082
G1 X104.192 Y86.505 E48.88913
G1 X104.901 Y86.309 E48.95864
G1 X106.923 Y85.864 E49.15429
G1 X107.652 Y85.744 E49.22411
G1 X109.729 Y85.518 E49.42155
G1 X110.47 Y85.478 E49.49167
G1 X112.546 Y85.479 E49.68785
G1 X113.282 Y85.519 E49.75751
G1 X115.357 Y85.745 E49.95476
G1 X116.088 Y85.865 E50.02476
G1 X118.11 Y86.311 E50.22043
G1 X118.818 Y86.508 E50.28988
G1 X120.799 Y87.175 E50.48741
G1 X121.485 Y87.448 E50.55718
G1 X123.371 Y88.32 E50.75354
G1 X124.031 Y88.67 E50.82413
G1 X125.814 Y89.745 E51.02088
G1 X126.416 Y90.154 E51.08966
G1 X128.072 Y91.411 E51.28613
G1 X128.643 Y91.895 E51.35686
G1 X130.158 Y93.332 E51.55419
G1 X130.664 Y93.867 E51.62378
G1 X132.008 Y95.45 E51.82002
G1 X132.452 Y96.034 E51.88934
G1 X133.616 Y97.749 E52.08521
G1 X133.999 Y98.386 E52.15545
G1 X134.98 Y100.237 E52.35342
G1 X135.292 Y100.91 E52.42352
G1 X136.059 Y102.838 E52.61961
G1 X136.292 Y103.532 E52.68879
G1 X136.854 Y105.553 E52.88702
G1 X137.015 Y106.283 E52.95766
G1 X137.347 Y108.317 E53.15242
G1 X137.426 Y109.047 E53.2218
G1 X137.539 Y111.136 E53.4195
G1 X137.539 Y111.878 E53.48962
G1 X137.425 Y113.962 E53.68686
G1 X137.346 Y114.691 E53.75615
G1 X137.013 Y116.727 E53.95111
G1 X136.852 Y117.454 E54.02147
G1 X136.29 Y119.474 E54.21961
G1 X136.056 Y120.17 E54.289
G1 X135.288 Y122.099 E54.48521
G1 X134.976 Y122.773 E54.5554
G1 X133.999 Y124.614 E54.75235
G1 X133.618 Y125.246 E54.82209
G1 X132.448 Y126.971 E55.01906
G1 X132.001 Y127.559 E55.08886
G1 X130.657 Y129.141 E55.28502
G1 X130.149 Y129.677 E55.35481
G1 X128.634 Y131.112 E55.55201
G1 X128.067 Y131.594 E55.62233
G1 X126.408 Y132.853 E55.81914
G1 X125.805 Y133.261 E55.88794
G1 X124.033 Y134.329 E56.08346
G1 X123.373 Y134.679 E56.15406
G1 X121.484 Y135.552 E56.35071
G1 X120.797 Y135.826 E56.4206
G1 X118.808 Y136.495 E56.61891
G1 X118.101 Y136.691 E56.68824
G1 X116.087 Y137.135 E56.88314
G1 X115.357 Y137.255 E56.95305
G1 X113.272 Y137.482 E57.15124
G1 X112.53 Y137.522 E57.22147
G1 X110.454 Y137.521 E57.41765
G1 X109.718 Y137.481 E57.4873
G1 X107.643 Y137.255 E57.68455
G1 X106.912 Y137.135 E57.75455
G1 X104.89 Y136.689 E57.95023
G1 X104.182 Y136.492 E58.01967
G1 X102.201 Y135.825 E58.2172
G1 X101.515 Y135.552 E58.28698
G1 X99.629 Y134.68 E58.48333
G1 X98.969 Y134.33 E58.55393
G1 X97.186 Y133.255 E58.75068
G1 X96.584 Y132.846 E58.81945
G1 X94.928 Y131.589 E59.01592
G1 X94.357 Y131.105 E59.08666
G1 X92.842 Y129.668 E59.28398
G1 X92.336 Y129.133 E59.35357
G1 X90.992 Y127.55 E59.54981
G1 X90.544 Y126.96 E59.61982
G1 X89.376 Y125.235 E59.81668
G1 X88.998 Y124.607 E59.88595
G1 X88.021 Y122.766 E60.08291
G1 X87.708 Y122.089 E60.15339
G1 X86.94 Y120.158 E60.34977
G1 X86.706 Y119.464 E60.41898
G1 X86.145 Y117.446 E60.61691
G1 X85.985 Y116.715 E60.68763
G1 X85.653 Y114.677 E60.88276
G1 X85.574 Y113.949 E60.95196
G1 X85.461 Y111.864 E61.14928
G1 X85.461 Y111.123 E61.2193
G1 X85.575 Y109.035 E61.41691
G1 X85.655 Y108.303 E61.4865
G1 X85.988 Y106.271 E61.68109
G1 X86.148 Y105.545 E61.75134
G1 X86.711 Y103.522 E61.94978
G1 X86.945 Y102.827 E62.01908
G1 X87.712 Y100.901 E62.21499
G1 X88.026 Y100.224 E62.28551
G1 X89.004 Y98.383 E62.48251
G1 X89.381 Y97.756 E62.55165
G1 X90.55 Y96.031 E62.74856
G1 X90.999 Y95.441 E62.81863
G1 X92.343 Y93.859 E63.01479
G1 X92.851 Y93.323 E63.08458
G0 F4500 X93.091 Y93.577
G1 F1800 X94.606 Y92.142 E63.28178
G1 X95.145 Y91.685 E63.34856
G1 X96.804 Y90.426 E63.54537
G1 X97.376 Y90.038 E63.61068
G1 X99.15 Y88.969 E63.80641
G1 X99.776 Y88.637 E63.87337
G1 X101.663 Y87.765 E64.06981
G1 X102.315 Y87.506 E64.13611
G1 X104.304 Y86.837 E64.33442
G1 X104.976 Y86.65 E64.40033
G1 X106.998 Y86.205 E64.59599
G1 X107.69 Y86.092 E64.66225
G1 X109.767 Y85.866 E64.85968
G1 X110.47 Y85.828 E64.92621
G1 X112.546 Y85.829 E65.12239
G1 X113.244 Y85.867 E65.18845
G1 X115.319 Y86.093 E65.3857
G1 X116.013 Y86.207 E65.45216
G1 X118.035 Y86.653 E65.64783
G1 X118.706 Y86.839 E65.71363
G1 X120.687 Y87.506 E65.91117
G1 X121.338 Y87.766 E65.97741
G1 X123.224 Y88.638 E66.17376
G1 X123.85 Y88.97 E66.24073
G1 X125.633 Y90.045 E66.43748
G1 X126.205 Y90.433 E66.50279
G1 X127.861 Y91.69 E66.69926
G1 X128.402 Y92.149 E66.76631
G1 X129.917 Y93.586 E66.96363
G1 X130.397 Y94.093 E67.02961
G1 X131.741 Y95.676 E67.22585
G1 X132.163 Y96.231 E67.29173
G1 X133.327 Y97.946 E67.48761
G1 X133.69 Y98.55 E67.5542
G1 X134.671 Y100.401 E67.75217
G1 X134.966 Y101.04 E67.81868
G1 X135.733 Y102.968 E68.01476
G1 X135.955 Y103.626 E68.08038
G1 X136.517 Y105.647 E68.27862
G1 X136.669 Y106.339 E68.34557
G1 X137.001 Y108.373 E68.54033
G1 X137.077 Y109.066 E68.60621
G1 X137.19 Y111.155 E68.80391
G1 X137.189 Y111.859 E68.87043
G1 X137.075 Y113.943 E69.06767
G1 X137 Y114.634 E69.13335
G1 X136.667 Y116.67 E69.32831
G1 X136.515 Y117.361 E69.39517
G1 X135.953 Y119.381 E69.59331
G1 X135.731 Y120.04 E69.65902
G1 X134.963 Y121.969 E69.85523
G1 X134.667 Y122.609 E69.92186
G1 X133.69 Y124.45 E70.11882
G1 X133.329 Y125.05 E70.18499
G1 X132.159 Y126.775 E70.38196
G1 X131.735 Y127.332 E70.44811
