;FLAVOR:UltiGCode
;TIME:5677
;MATERIAL:11314
;MATERIAL2:0
;NOZZLE_DIAMETER:0.4
;MINX:72.325
;MINY:87.501
;MINZ:0.27
;MAXX:150.675
;MAXY:135.526
;MAXZ:26.22
;Generated with Cura_SteamEngine 4.13.1
M82 ;absolute extrusion mode
G0 F3000 Y50 ;avoid prime blob
G92 E0
G92 E0
G10
;LAYER_COUNT:174
;LAYER:0
M107
G0 F4500 X77.361 Y93.932 Z0.27
;TYPE:SKIRT
G11
G1 F1800 X78.001 Y93.463 E0.07498
G1 X78.684 Y93.061 E0.14987
G1 X79.405 Y92.729 E0.22489
G1 X80.156 Y92.472 E0.2999
G1 X80.928 Y92.291 E0.37483
G1 X81.715 Y92.189 E0.44982
G1 X82.508 Y92.167 E0.52479
G1 X83.3 Y92.225 E0.59983
G1 X84.081 Y92.362 E0.67476
G1 X84.397 Y92.451 E0.70579
G1 X84.707 Y92.045 E0.75406
G1 X85.125 Y91.588 E0.81259
G1 X85.227 Y91.485 E0.82629
G1 X85.813 Y90.95 E0.90127
G1 X86.45 Y90.477 E0.97625
G1 X87.132 Y90.07 E1.0513
G1 X87.85 Y89.734 E1.12621
G1 X88.599 Y89.471 E1.20123
G1 X89.371 Y89.286 E1.27625
G1 X90.157 Y89.179 E1.35121
G1 X90.823 Y89.151 E1.4142
G1 X92.772 Y89.151 E1.59839
G1 X93.564 Y89.191 E1.67332
G1 X94.349 Y89.31 E1.74835
G1 X95.117 Y89.508 E1.8233
G1 X95.639 Y89.701 E1.8759
G1 X95.84 Y89.502 E1.90263
G1 X96.458 Y89.003 E1.97769
G1 X97.122 Y88.57 E2.0526
G1 X97.827 Y88.205 E2.12762
G1 X98.565 Y87.914 E2.20259
G1 X99.329 Y87.698 E2.27762
G1 X100.11 Y87.56 E2.35256
G1 X100.901 Y87.501 E2.42752
G1 X102.088 Y87.563 E2.53984
G1 X102.4 Y87.603 E2.56957
G1 X103.181 Y87.743 E2.64455
G1 X103.944 Y87.962 E2.71957
G1 X104.681 Y88.256 E2.79455
G1 X105.385 Y88.622 E2.86953
G1 X106.154 Y89.136 E2.95694
G1 X107.069 Y89.829 E3.06541
G1 X107.12 Y89.872 E3.07171
G1 X110.224 Y89.876 E3.36504
G1 X118.888 Y89.865 E4.18379
G1 X123.959 Y89.863 E4.663
G1 X124.751 Y89.903 E4.73794
G1 X125.536 Y90.022 E4.81297
G1 X126.304 Y90.219 E4.88789
G1 X127.049 Y90.493 E4.96291
G1 X127.664 Y90.793 E5.02757
G1 X128.157 Y90.434 E5.0852
G1 X128.843 Y90.034 E5.16024
G1 X129.565 Y89.705 E5.23522
G1 X130.316 Y89.45 E5.31017
G1 X131.089 Y89.272 E5.38513
G1 X131.877 Y89.173 E5.46018
G1 X132.462 Y89.151 E5.51551
G1 X134.421 Y89.15 E5.70063
G1 X135.213 Y89.19 E5.77557
G1 X135.998 Y89.309 E5.8506
G1 X136.766 Y89.506 E5.92553
G1 X137.511 Y89.78 E6.00054
G1 X138.225 Y90.127 E6.07556
G1 X138.899 Y90.545 E6.15051
G1 X139.822 Y91.29 E6.2626
G1 X139.924 Y91.386 E6.27583
G1 X140.474 Y91.959 E6.35089
G1 X140.963 Y92.583 E6.42581
G1 X141.387 Y93.254 E6.50082
G1 X141.741 Y93.964 E6.57579
G1 X142.023 Y94.706 E6.6508
G1 X142.228 Y95.473 E6.72583
G1 X142.354 Y96.256 E6.80077
G1 X142.398 Y96.82 E6.85423
G1 X142.401 Y96.927 E6.86435
G1 X142.451 Y96.924 E6.86908
G1 X143.244 Y96.954 E6.94407
G1 X144.03 Y97.063 E7.01906
G1 X144.801 Y97.252 E7.09408
G1 X145.549 Y97.516 E7.16904
G1 X146.267 Y97.855 E7.24407
G1 X146.946 Y98.264 E7.31898
G1 X147.581 Y98.74 E7.39397
G1 X148.166 Y99.277 E7.46901
G1 X148.693 Y99.87 E7.54398
G1 X149.157 Y100.513 E7.61892
G1 X149.555 Y101.2 E7.69395
G1 X149.881 Y101.923 E7.76889
G1 X150.134 Y102.676 E7.84396
G1 X150.309 Y103.449 E7.91886
G1 X150.405 Y104.237 E7.99388
G1 X150.425 Y104.798 E8.04692
G1 X150.425 Y107.043 E8.25908
G1 X150.547 Y107.561 E8.30937
G1 X150.65 Y108.347 E8.38428
G1 X150.675 Y108.977 E8.44386
G1 X150.674 Y114.052 E8.92345
G1 X150.634 Y114.844 E8.99839
G1 X150.514 Y115.628 E9.07334
G1 X150.424 Y115.978 E9.10749
G1 X150.424 Y118.178 E9.31539
G1 X150.384 Y118.97 E9.39033
G1 X150.265 Y119.755 E9.46536
G1 X150.067 Y120.523 E9.54031
G1 X149.792 Y121.268 E9.61535
G1 X149.445 Y121.981 E9.69029
G1 X149.027 Y122.656 E9.76532
G1 X148.544 Y123.285 E9.84026
G1 X147.999 Y123.862 E9.91526
G1 X147.4 Y124.382 E9.99022
G1 X146.751 Y124.838 E10.06518
G1 X146.059 Y125.227 E10.1402
G1 X145.332 Y125.545 E10.21518
G1 X144.576 Y125.788 E10.29022
G1 X143.8 Y125.953 E10.3652
G1 X143.012 Y126.039 E10.4401
G1 X142.397 Y126.044 E10.49822
G1 X142.366 Y126.663 E10.55679
G1 X142.247 Y127.447 E10.63173
G1 X142.049 Y128.216 E10.70677
G1 X141.775 Y128.961 E10.78178
G1 X141.428 Y129.674 E10.85672
G1 X141.01 Y130.349 E10.93174
G1 X140.527 Y130.978 E11.00669
G1 X140.099 Y131.44 E11.0662
G1 X139.996 Y131.543 E11.07997
G1 X139.408 Y132.076 E11.15497
G1 X138.769 Y132.546 E11.22993
G1 X138.085 Y132.949 E11.30495
G1 X137.365 Y133.282 E11.37991
G1 X136.615 Y133.54 E11.45486
G1 X135.842 Y133.722 E11.52991
G1 X135.056 Y133.825 E11.60482
G1 X134.428 Y133.85 E11.66422
G1 X132.487 Y133.85 E11.84764
G1 X131.695 Y133.81 E11.92258
G1 X130.91 Y133.691 E11.99761
G1 X130.142 Y133.493 E12.07256
G1 X129.397 Y133.218 E12.1476
G1 X128.684 Y132.871 E12.22254
G1 X128.009 Y132.453 E12.29757
G1 X127.684 Y132.204 E12.33626
G1 X127.493 Y132.311 E12.35695
G1 X126.766 Y132.629 E12.43193
G1 X126.01 Y132.872 E12.50697
G1 X125.234 Y133.037 E12.58195
G1 X124.446 Y133.123 E12.65685
G1 X123.97 Y133.137 E12.70185
G1 X118.518 Y133.128 E13.21707
G1 X109.34 Y133.141 E14.08439
G1 X107.059 Y133.141 E14.29995
G1 X106.866 Y133.317 E14.32463
G1 X106.253 Y133.821 E14.39962
G1 X105.593 Y134.261 E14.47458
G1 X104.892 Y134.632 E14.54953
G1 X104.157 Y134.931 E14.62452
G1 X103.902 Y135.008 E14.64969
G1 X103.148 Y135.254 E14.72464
G1 X102.372 Y135.424 E14.79971
G1 X101.584 Y135.515 E14.87467
G1 X100.791 Y135.526 E14.94962
G1 X100 Y135.457 E15.02465
G1 X99.221 Y135.309 E15.09958
G1 X98.46 Y135.083 E15.1746
G1 X97.726 Y134.782 E15.24957
G1 X97.026 Y134.408 E15.32457
G1 X96.367 Y133.966 E15.39956
G1 X95.756 Y133.46 E15.47452
G1 X95.614 Y133.316 E15.49364
G1 X94.963 Y133.54 E15.5587
G1 X94.19 Y133.722 E15.63374
G1 X93.404 Y133.825 E15.70865
G1 X92.776 Y133.85 E15.76805
G1 X90.844 Y133.85 E15.95062
G1 X90.052 Y133.81 E16.02556
G1 X89.267 Y133.691 E16.10059
G1 X88.499 Y133.493 E16.17554
G1 X87.754 Y133.218 E16.25058
G1 X87.041 Y132.871 E16.32552
G1 X86.366 Y132.453 E16.40055
G1 X85.737 Y131.97 E16.47549
G1 X85.303 Y131.571 E16.5312
G1 X85.2 Y131.469 E16.5449
G1 X84.665 Y130.883 E16.61988
G1 X84.428 Y130.564 E16.65744
G1 X84.363 Y130.585 E16.66389
G1 X83.587 Y130.75 E16.73887
G1 X82.798 Y130.837 E16.81388
G1 X82.005 Y130.843 E16.88882
G1 X81.215 Y130.769 E16.9638
G1 X80.436 Y130.617 E17.0388
G1 X79.677 Y130.386 E17.11378
G1 X78.944 Y130.081 E17.1888
G1 X78.247 Y129.703 E17.26373
G1 X77.59 Y129.257 E17.33877
G1 X76.982 Y128.747 E17.41377
G1 X76.429 Y128.179 E17.48868
G1 X75.935 Y127.558 E17.56367
G1 X75.355 Y126.614 E17.66837
G1 X75.04 Y126.01 E17.73274
G1 X74.852 Y125.799 E17.75945
G1 X74.386 Y125.157 E17.83442
G1 X73.989 Y124.475 E17.90899
G1 X73.639 Y123.798 E17.98101
G1 X73.335 Y123.137 E18.04976
G1 X73.062 Y122.463 E18.11848
G1 X72.802 Y121.714 E18.19341
G1 X72.623 Y120.967 E18.266
G1 X72.479 Y120.204 E18.33937
G1 X72.349 Y119.075 E18.44677
G1 X72.325 Y118.338 E18.51645
G1 X72.328 Y104.58 E19.81658
G1 X72.368 Y103.792 E19.89114
G1 X72.432 Y103.157 E19.95146
G1 X72.523 Y102.517 E20.01254
G1 X72.547 Y102.387 E20.02504
G1 X72.729 Y101.619 E20.09962
G1 X72.924 Y100.948 E20.16566
G1 X73.338 Y99.842 E20.27726
G1 X73.712 Y99.063 E20.35892
G1 X74.051 Y98.429 E20.42686
G1 X74.46 Y97.749 E20.50184
G1 X74.936 Y97.113 E20.57691
G1 X75.024 Y97.017 E20.58922
G1 X75.363 Y96.373 E20.658
G1 X75.767 Y95.69 E20.73299
G1 X76.238 Y95.052 E20.80793
G1 X76.771 Y94.464 E20.88292
G1 X77.361 Y93.932 E20.958
G0 F4500 X77.636 Y94.16
G1 F1800 X78.266 Y93.708 E21.03127
G1 X78.94 Y93.323 E21.10462
G1 X79.649 Y93.01 E21.17786
G1 X80.387 Y92.771 E21.25117
G1 X81.146 Y92.609 E21.32451
G1 X81.917 Y92.526 E21.39779
G1 X82.692 Y92.524 E21.47103
G1 X83.464 Y92.601 E21.54434
G1 X84.224 Y92.757 E21.61766
G1 X84.532 Y92.854 E21.64818
G1 X84.574 Y92.788 E21.65557
G1 X85.054 Y92.179 E21.72885
G1 X85.476 Y91.731 E21.78701
G1 X86.05 Y91.209 E21.86033
G1 X86.674 Y90.748 E21.93364
G1 X87.342 Y90.355 E22.00688
G1 X88.047 Y90.032 E22.08016
G1 X88.782 Y89.783 E22.1535
G1 X89.538 Y89.611 E22.22677
G1 X90.308 Y89.519 E22.30005
G1 X90.823 Y89.501 E22.34875
G1 X92.772 Y89.501 E22.53293
G1 X93.547 Y89.541 E22.60626
G1 X94.313 Y89.66 E22.67952
G1 X95.063 Y89.858 E22.75282
G1 X95.72 Y90.106 E22.81918
G1 X96.205 Y89.648 E22.88222
G1 X96.82 Y89.176 E22.95548
G1 X97.481 Y88.769 E23.02884
G1 X98.18 Y88.433 E23.10213
G1 X98.91 Y88.171 E23.17542
G1 X99.663 Y87.985 E23.24872
G1 X100.431 Y87.878 E23.322
G1 X101.206 Y87.85 E23.39528
G1 X102.044 Y87.91 E23.47467
G1 X102.356 Y87.95 E23.5044
G1 X103.119 Y88.088 E23.57767
G1 X103.864 Y88.304 E23.65097
G1 X104.583 Y88.596 E23.72431
G1 X105.268 Y88.96 E23.79761
G1 X105.942 Y89.415 E23.87446
G1 X106.857 Y90.108 E23.98293
G1 X106.992 Y90.221 E23.99957
G1 X110.224 Y90.226 E24.30499
G1 X118.888 Y90.215 E25.12374
G1 X123.959 Y90.213 E25.60295
G1 X124.734 Y90.253 E25.67628
G1 X125.5 Y90.372 E25.74954
G1 X126.25 Y90.569 E25.82282
G1 X126.976 Y90.843 E25.89615
G1 X127.67 Y91.19 E25.96947
G1 X127.698 Y91.208 E25.97262
G1 X127.75 Y91.162 E25.97918
G1 X128.378 Y90.708 E26.05241
G1 X129.05 Y90.321 E26.12569
G1 X129.759 Y90.005 E26.19905
G1 X130.496 Y89.764 E26.27232
G1 X131.254 Y89.599 E26.34563
G1 X132.025 Y89.514 E26.41893
G1 X132.462 Y89.501 E26.46025
G1 X134.421 Y89.5 E26.64537
G1 X135.196 Y89.54 E26.71871
G1 X135.962 Y89.659 E26.79196
G1 X136.712 Y89.856 E26.86524
G1 X137.438 Y90.13 E26.93857
G1 X138.132 Y90.476 E27.01185
G1 X138.786 Y90.893 E27.08515
G1 X139.582 Y91.545 E27.18239
G1 X139.684 Y91.641 E27.19562
G1 X140.221 Y92.201 E27.26894
G1 X140.697 Y92.814 E27.34228
G1 X141.108 Y93.472 E27.4156
G1 X141.449 Y94.168 E27.48884
G1 X141.716 Y94.897 E27.56221
G1 X141.906 Y95.648 E27.63541
G1 X142.04 Y96.698 E27.73544
G1 X142.06 Y97.263 E27.78887
G1 X142.06 Y97.296 E27.79199
G1 X142.665 Y97.274 E27.8492
G1 X143.439 Y97.326 E27.9225
G1 X144.203 Y97.457 E27.99575
G1 X144.95 Y97.666 E28.06906
G1 X145.672 Y97.951 E28.14241
G1 X146.36 Y98.309 E28.2157
G1 X147.008 Y98.735 E28.28898
G1 X147.608 Y99.227 E28.36231
G1 X148.155 Y99.777 E28.43561
G1 X148.642 Y100.38 E28.50886
G1 X149.064 Y101.031 E28.58217
G1 X149.417 Y101.721 E28.65542
G1 X149.698 Y102.445 E28.72881
G1 X149.902 Y103.193 E28.80208
G1 X150.028 Y103.958 E28.87534
G1 X150.075 Y104.798 E28.95485
G1 X150.075 Y107.068 E29.16936
G1 X150.221 Y107.727 E29.23315
G1 X150.31 Y108.497 E29.3064
G1 X150.325 Y108.976 E29.35168
G1 X150.324 Y114.051 E29.83127
G1 X150.284 Y114.826 E29.90461
G1 X150.164 Y115.592 E29.97788
G1 X150.074 Y115.933 E30.0112
G1 X150.074 Y118.178 E30.22336
G1 X150.034 Y118.953 E30.29669
G1 X149.915 Y119.719 E30.36995
G1 X149.717 Y120.469 E30.44325
G1 X149.443 Y121.195 E30.51658
G1 X149.096 Y121.888 E30.58982
G1 X148.679 Y122.542 E30.66312
G1 X148.197 Y123.15 E30.73644
G1 X147.655 Y123.705 E30.80975
G1 X147.059 Y124.202 E30.88308
G1 X146.415 Y124.634 E30.95636
G1 X145.73 Y124.997 E31.02962
G1 X145.011 Y125.289 E31.10296
G1 X144.266 Y125.504 E31.17623
G1 X143.503 Y125.642 E31.24951
G1 X142.73 Y125.701 E31.32277
G1 X142.056 Y125.682 E31.38649
G1 X142.056 Y125.871 E31.40435
G1 X142.016 Y126.645 E31.47759
G1 X141.897 Y127.412 E31.55094
G1 X141.699 Y128.162 E31.62424
G1 X141.425 Y128.887 E31.69748
G1 X141.078 Y129.581 E31.77081
G1 X140.662 Y130.235 E31.84405
G1 X140.18 Y130.843 E31.91737
G1 X139.749 Y131.296 E31.97646
G1 X139.173 Y131.815 E32.04973
G1 X138.547 Y132.273 E32.12303
G1 X137.876 Y132.663 E32.19637
G1 X137.17 Y132.983 E32.26962
G1 X136.434 Y133.228 E32.34293
G1 X135.676 Y133.396 E32.4163
G1 X134.906 Y133.485 E32.48954
G1 X134.428 Y133.5 E32.53474
G1 X132.487 Y133.5 E32.71816
G1 X131.712 Y133.46 E32.7915
G1 X130.946 Y133.341 E32.86475
G1 X130.196 Y133.143 E32.93806
G1 X129.47 Y132.869 E33.01139
G1 X128.777 Y132.522 E33.08463
G1 X128.123 Y132.105 E33.15792
G1 X127.721 Y131.786 E33.20642
G1 X127.164 Y132.081 E33.26598
G1 X126.445 Y132.373 E33.33932
G1 X125.7 Y132.588 E33.41259
G1 X124.937 Y132.726 E33.48587
G1 X123.971 Y132.787 E33.57734
G1 X118.519 Y132.778 E34.09255
G1 X109.34 Y132.791 E34.95997
G1 X106.923 Y132.791 E35.18837
G1 X106.63 Y133.058 E35.22583
G1 X106.031 Y133.55 E35.29909
G1 X105.384 Y133.978 E35.37239
G1 X104.696 Y134.337 E35.44573
G1 X103.975 Y134.623 E35.51903
G1 X103.76 Y134.687 E35.54023
G1 X103.022 Y134.926 E35.61353
G1 X102.263 Y135.087 E35.68686
G1 X101.492 Y135.17 E35.76014
G1 X100.716 Y135.172 E35.83347
G1 X99.945 Y135.095 E35.90669
G1 X99.185 Y134.939 E35.98001
G1 X98.445 Y134.705 E36.05335
G1 X97.734 Y134.397 E36.12657
G1 X97.058 Y134.016 E36.1999
G1 X96.424 Y133.569 E36.27321
G1 X95.84 Y133.058 E36.34654
G1 X95.695 Y132.903 E36.3666
G1 X95.518 Y132.983 E36.38496
G1 X94.782 Y133.228 E36.45826
G1 X94.024 Y133.396 E36.53163
G1 X93.254 Y133.485 E36.60488
G1 X92.776 Y133.5 E36.65007
G1 X90.844 Y133.5 E36.83265
G1 X90.069 Y133.46 E36.90598
G1 X89.303 Y133.341 E36.97924
G1 X88.553 Y133.143 E37.05254
G1 X87.827 Y132.869 E37.12587
G1 X87.134 Y132.522 E37.19911
G1 X86.48 Y132.105 E37.27241
G1 X85.872 Y131.623 E37.34573
G1 X85.446 Y131.22 E37.40114
G1 X84.924 Y130.646 E37.47446
G1 X84.561 Y130.155 E37.53217
G1 X84.053 Y130.302 E37.58214
G1 X83.29 Y130.44 E37.65541
G1 X82.516 Y130.498 E37.72876
G1 X81.741 Y130.476 E37.80203
G1 X80.972 Y130.375 E37.87532
G1 X80.218 Y130.195 E37.94858
G1 X79.486 Y129.938 E38.02189
G1 X78.784 Y129.607 E38.09524
G1 X78.12 Y129.206 E38.16854
G1 X77.501 Y128.739 E38.24181
G1 X76.934 Y128.21 E38.31509
G1 X76.423 Y127.626 E38.38843
G1 X75.976 Y126.992 E38.46173
G1 X75.666 Y126.453 E38.52049
G1 X75.331 Y125.809 E38.58909
G1 X75.07 Y125.511 E38.62653
G1 X74.623 Y124.878 E38.69976
G1 X74.299 Y124.314 E38.76122
G1 X73.949 Y123.637 E38.83324
G1 X73.659 Y123.006 E38.89887
G1 X73.386 Y122.332 E38.96759
G1 X73.133 Y121.599 E39.04087
G1 X72.967 Y120.903 E39.10848
G1 X72.823 Y120.14 E39.18186
G1 X72.699 Y119.06 E39.28459
G1 X72.675 Y118.338 E39.35286
G1 X72.678 Y104.58 E40.65299
G1 X72.716 Y103.827 E40.72424
G1 X72.78 Y103.192 E40.78455
G1 X72.867 Y102.581 E40.84287
G1 X72.891 Y102.451 E40.85536
G1 X73.065 Y101.717 E40.92665
G1 X73.26 Y101.046 E40.99268
G1 X73.655 Y99.989 E41.09932
G1 X74.021 Y99.228 E41.17912
G1 X74.36 Y98.594 E41.24706
G1 X74.761 Y97.93 E41.32036
G1 X75.227 Y97.31 E41.39365
G1 X75.316 Y97.214 E41.40602
G1 X75.673 Y96.536 E41.47843
G1 X76.069 Y95.869 E41.55174
G1 X76.531 Y95.246 E41.62503
G1 X77.056 Y94.675 E41.69833
G1 X77.636 Y94.16 E41.77163
G0 F4500 X77.91 Y94.389
G1 F1800 X78.531 Y93.955 E41.84323
G1 X79.193 Y93.588 E41.91476
G1 X79.891 Y93.293 E41.98637
G1 X80.616 Y93.073 E42.05796
G1 X81.36 Y92.931 E42.12954
G1 X82.114 Y92.868 E42.20104
G1 X82.871 Y92.885 E42.2726
G1 X83.623 Y92.982 E42.34425
G1 X84.359 Y93.157 E42.41574
G1 X84.683 Y93.271 E42.4482
G1 X84.922 Y92.903 E42.48966
G1 X85.623 Y92.08 E42.59183
G1 X85.725 Y91.977 E42.60553
G1 X86.285 Y91.468 E42.67704
G1 X86.897 Y91.021 E42.74866
G1 X87.551 Y90.64 E42.82018
G1 X88.243 Y90.331 E42.8918
G1 X88.963 Y90.096 E42.96337
G1 X89.704 Y89.939 E43.03495
G1 X90.823 Y89.851 E43.14102
G1 X92.772 Y89.851 E43.3252
G1 X93.528 Y89.891 E43.39675
G1 X94.276 Y90.01 E43.46832
G1 X95.007 Y90.208 E43.53989
G1 X95.714 Y90.482 E43.61154
G1 X95.807 Y90.53 E43.62143
G1 X96.007 Y90.307 E43.64974
G1 X96.569 Y89.8 E43.72127
G1 X97.182 Y89.355 E43.79285
G1 X97.838 Y88.977 E43.8644
G1 X98.53 Y88.67 E43.93594
G1 X99.251 Y88.438 E44.00751
G1 X99.993 Y88.283 E44.07915
G1 X100.746 Y88.207 E44.15067
G1 X101.503 Y88.211 E44.2222
G1 X102.311 Y88.297 E44.29899
G1 X103.056 Y88.433 E44.37056
G1 X103.783 Y88.647 E44.44217
G1 X104.483 Y88.936 E44.51374
G1 X105.149 Y89.297 E44.58533
G1 X105.731 Y89.694 E44.6519
G1 X106.646 Y90.387 E44.76037
G1 X106.864 Y90.571 E44.78733
G1 X110.224 Y90.576 E45.10485
G1 X118.888 Y90.565 E45.9236
G1 X123.959 Y90.563 E46.40281
G1 X124.715 Y90.603 E46.47435
G1 X125.463 Y90.722 E46.54592
G1 X126.195 Y90.919 E46.61756
G1 X126.901 Y91.193 E46.68912
G1 X127.575 Y91.539 E46.76072
G1 X127.736 Y91.644 E46.77888
G1 X127.983 Y91.424 E46.81014
G1 X128.598 Y90.983 E46.88166
G1 X129.257 Y90.609 E46.95326
G1 X129.951 Y90.306 E47.02482
G1 X130.674 Y90.079 E47.09644
G1 X131.416 Y89.928 E47.16799
G1 X132.462 Y89.851 E47.26711
G1 X134.421 Y89.85 E47.45223
G1 X135.178 Y89.89 E47.52387
G1 X135.926 Y90.009 E47.59544
G1 X136.657 Y90.206 E47.66699
G1 X137.363 Y90.479 E47.73852
G1 X138.037 Y90.825 E47.81011
G1 X138.67 Y91.241 E47.88169
G1 X139.342 Y91.8 E47.9643
G1 X139.444 Y91.896 E47.97753
