;FLAVOR:UltiGCode
;TIME:841
;MATERIAL:1594
;MATERIAL2:0
;NOZZLE_DIAMETER:0.4
;MINX:93.763
;MINY:94.204
;MINZ:0.27
;MAXX:129.231
;MAXY:128.712
;MAXZ:16.02
;Generated with Cura_SteamEngine 4.13.1
M82 ;absolute extrusion mode
G0 F3000 Y50 ;avoid prime blob
G92 E0
G92 E0
G10
;LAYER_COUNT:106
;LAYER:0
M107
G0 F4500 X99.789 Y96.607 Z0.27
;TYPE:SKIRT
G11
G1 F1800 X100.378 Y96.076 E0.07494
G1 X100.883 Y95.695 E0.13472
G1 X101.549 Y95.263 E0.20974
G1 X102.254 Y94.901 E0.28463
G1 X102.993 Y94.611 E0.35965
G1 X103.757 Y94.397 E0.43463
G1 X104.539 Y94.261 E0.50964
G1 X105.33 Y94.204 E0.58458
G1 X106.123 Y94.227 E0.65955
G1 X106.91 Y94.33 E0.73456
G1 X107.683 Y94.511 E0.80958
G1 X108.077 Y94.637 E0.84867
G1 X111.5 Y95.824 E1.19104
G1 X114.923 Y94.637 E1.53341
G1 X115.684 Y94.415 E1.60832
G1 X116.465 Y94.271 E1.68337
G1 X117.255 Y94.206 E1.75828
G1 X118.049 Y94.221 E1.83333
G1 X118.837 Y94.316 E1.90833
G1 X119.611 Y94.489 E1.98328
G1 X120.364 Y94.74 E2.05829
G1 X121.087 Y95.065 E2.1332
G1 X121.775 Y95.461 E2.20821
G1 X122.265 Y95.802 E2.26463
G1 X122.884 Y96.299 E2.33964
G1 X123.449 Y96.855 E2.41455
G1 X123.956 Y97.466 E2.48958
G1 X124.399 Y98.124 E2.56454
G1 X124.773 Y98.824 E2.63954
G1 X125.075 Y99.558 E2.71455
G1 X125.302 Y100.318 E2.7895
G1 X125.451 Y101.098 E2.86454
G1 X125.52 Y101.888 E2.93948
G1 X125.525 Y102.338 E2.98201
G1 X125.454 Y105.961 E3.32445
G1 X127.642 Y108.851 E3.667
G1 X128.088 Y109.507 E3.74196
G1 X128.466 Y110.204 E3.81689
G1 X128.772 Y110.936 E3.89186
G1 X129.003 Y111.695 E3.96684
G1 X129.156 Y112.474 E4.04186
G1 X129.231 Y113.264 E4.11685
G1 X129.225 Y114.057 E4.19179
G1 X129.139 Y114.846 E4.26679
G1 X128.975 Y115.622 E4.34175
G1 X128.79 Y116.23 E4.4018
G1 X128.505 Y116.97 E4.47674
G1 X128.147 Y117.678 E4.55171
G1 X127.72 Y118.347 E4.62671
G1 X127.228 Y118.969 E4.70166
G1 X126.675 Y119.539 E4.77671
G1 X126.068 Y120.05 E4.85169
G1 X125.413 Y120.497 E4.92663
G1 X124.716 Y120.876 E5.0016
G1 X123.984 Y121.184 E5.07665
G1 X123.592 Y121.314 E5.11568
G1 X120.124 Y122.366 E5.45815
G1 X118.051 Y125.34 E5.80073
G1 X117.566 Y125.967 E5.87564
G1 X117.019 Y126.543 E5.9507
G1 X116.417 Y127.06 E6.02569
G1 X115.767 Y127.514 E6.10062
G1 X115.073 Y127.9 E6.17566
G1 X114.345 Y128.215 E6.25062
G1 X113.589 Y128.454 E6.32555
G1 X112.812 Y128.617 E6.40057
G1 X112.023 Y128.7 E6.47554
G1 X111.409 Y128.712 E6.53358
G1 X110.617 Y128.672 E6.60852
G1 X109.832 Y128.553 E6.68355
G1 X109.064 Y128.355 E6.7585
G1 X108.319 Y128.08 E6.83354
G1 X107.606 Y127.733 E6.90848
G1 X106.931 Y127.315 E6.98351
G1 X106.302 Y126.832 E7.05845
G1 X105.725 Y126.287 E7.13345
G1 X105.205 Y125.688 E7.20841
G1 X104.949 Y125.34 E7.24924
G1 X102.876 Y122.366 E7.59182
G1 X99.408 Y121.314 E7.93429
G1 X98.662 Y121.046 E8.0092
G1 X97.946 Y120.704 E8.08418
G1 X97.268 Y120.291 E8.15921
G1 X96.635 Y119.813 E8.23416
G1 X96.053 Y119.273 E8.30919
G1 X95.529 Y118.678 E8.38411
G1 X95.067 Y118.032 E8.45917
G1 X94.673 Y117.344 E8.53409
G1 X94.349 Y116.619 E8.60913
G1 X94.153 Y116.056 E8.66547
G1 X93.945 Y115.29 E8.74048
G1 X93.814 Y114.507 E8.8155
G1 X93.763 Y113.716 E8.8904
G1 X93.792 Y112.923 E8.96539
G1 X93.9 Y112.137 E9.04037
G1 X94.087 Y111.365 E9.11543
G1 X94.35 Y110.617 E9.19036
G1 X94.688 Y109.899 E9.26535
G1 X95.096 Y109.218 E9.34037
G1 X95.358 Y108.851 E9.38298
G1 X97.546 Y105.961 E9.72553
G1 X97.475 Y102.338 E10.06797
G1 X97.5 Y101.545 E10.14295
G1 X97.604 Y100.758 E10.21796
G1 X97.787 Y99.986 E10.29294
G1 X98.047 Y99.236 E10.36795
G1 X98.38 Y98.516 E10.44292
G1 X98.785 Y97.834 E10.51787
G1 X99.256 Y97.195 E10.59289
G1 X99.789 Y96.607 E10.66789
G0 F4500 X100.136 Y96.757
G1 F1800 X100.94 Y96.086 E10.76685
G1 X101.088 Y95.979 E10.78411
G1 X101.739 Y95.557 E10.85742
G1 X102.43 Y95.205 E10.9307
G1 X103.154 Y94.926 E11.00403
G1 X103.903 Y94.723 E11.07736
G1 X104.668 Y94.598 E11.15061
G1 X105.442 Y94.552 E11.22388
G1 X106.217 Y94.587 E11.2972
G1 X106.984 Y94.7 E11.37046
G1 X107.963 Y94.967 E11.46636
G1 X111.5 Y96.194 E11.82014
G1 X115.037 Y94.967 E12.17393
G1 X115.782 Y94.751 E12.24723
G1 X116.545 Y94.613 E12.3205
G1 X117.319 Y94.554 E12.39386
G1 X118.094 Y94.575 E12.46712
G1 X118.863 Y94.676 E12.54042
G1 X119.618 Y94.855 E12.61374
G1 X120.35 Y95.111 E12.68703
G1 X121.052 Y95.441 E12.76033
G1 X121.912 Y95.979 E12.85619
G1 X122.06 Y96.086 E12.87345
G1 X122.664 Y96.572 E12.94671
G1 X123.215 Y97.118 E13.02002
G1 X123.707 Y97.718 E13.09334
G1 X124.135 Y98.365 E13.16665
G1 X124.493 Y99.052 E13.23986
G1 X124.779 Y99.773 E13.31316
G1 X124.99 Y100.52 E13.38651
G1 X125.122 Y101.284 E13.45978
G1 X125.175 Y102.331 E13.55885
G1 X125.102 Y106.075 E13.91272
G1 X127.363 Y109.062 E14.26674
G1 X127.798 Y109.704 E14.34002
G1 X128.166 Y110.387 E14.41334
G1 X128.461 Y111.104 E14.48661
G1 X128.68 Y111.848 E14.5599
G1 X128.822 Y112.611 E14.63324
G1 X128.885 Y113.384 E14.70653
G1 X128.867 Y114.159 E14.77979
G1 X128.77 Y114.929 E14.85313
G1 X128.514 Y115.947 E14.95232
G1 X128.457 Y116.121 E14.96963
G1 X128.178 Y116.844 E15.04286
G1 X127.826 Y117.535 E15.11615
G1 X127.404 Y118.187 E15.18954
G1 X126.918 Y118.791 E15.2628
G1 X126.372 Y119.342 E15.3361
G1 X125.773 Y119.834 E15.40936
G1 X125.126 Y120.262 E15.48266
G1 X124.438 Y120.62 E15.55596
G1 X123.49 Y120.979 E15.65175
G1 X119.907 Y122.066 E16.00558
G1 X117.764 Y125.14 E16.3597
G1 X117.289 Y125.753 E16.43298
G1 X116.752 Y126.313 E16.5063
G1 X116.161 Y126.815 E16.57958
G1 X115.522 Y127.254 E16.65284
G1 X114.84 Y127.624 E16.72617
G1 X114.124 Y127.923 E16.79949
G1 X113.381 Y128.146 E16.8728
G1 X112.62 Y128.291 E16.94601
G1 X111.591 Y128.362 E17.04348
G1 X111.409 Y128.362 E17.06068
G1 X110.634 Y128.322 E17.13401
G1 X109.868 Y128.203 E17.20727
G1 X109.118 Y128.005 E17.28057
G1 X108.392 Y127.731 E17.3539
G1 X107.699 Y127.384 E17.42714
G1 X107.045 Y126.967 E17.50044
G1 X106.437 Y126.485 E17.57376
G1 X105.882 Y125.943 E17.64707
G1 X105.236 Y125.14 E17.74446
G1 X103.093 Y122.066 E18.09857
G1 X99.51 Y120.979 E18.45241
G1 X98.78 Y120.716 E18.52573
G1 X98.082 Y120.379 E18.59898
G1 X97.421 Y119.972 E18.67233
G1 X96.806 Y119.5 E18.74559
G1 X96.243 Y118.966 E18.81892
G1 X95.738 Y118.377 E18.89224
G1 X95.296 Y117.74 E18.96551
G1 X94.923 Y117.06 E19.0388
G1 X94.543 Y116.121 E19.13453
G1 X94.486 Y115.947 E19.15183
G1 X94.283 Y115.198 E19.22517
G1 X94.158 Y114.433 E19.29842
G1 X94.112 Y113.658 E19.37178
G1 X94.147 Y112.883 E19.4451
G1 X94.261 Y112.116 E19.51837
G1 X94.453 Y111.365 E19.59163
G1 X94.722 Y110.637 E19.66497
G1 X95.064 Y109.941 E19.73825
G1 X95.637 Y109.062 E19.83741
G1 X97.898 Y106.075 E20.19143
G1 X97.825 Y102.331 E20.5453
G1 X97.85 Y101.556 E20.61858
G1 X97.955 Y100.787 E20.69192
G1 X98.138 Y100.033 E20.76524
G1 X98.398 Y99.302 E20.83856
G1 X98.731 Y98.602 E20.91182
G1 X99.135 Y97.94 E20.9851
G1 X99.605 Y97.323 E21.0584
G1 X100.136 Y96.757 E21.13174
G0 F4500 X100.482 Y96.912
G1 F1800 X101.145 Y96.369 E21.21273
G1 X101.293 Y96.262 E21.22998
G1 X101.93 Y95.852 E21.30157
G1 X102.606 Y95.51 E21.37316
G1 X103.314 Y95.242 E21.4447
G1 X104.047 Y95.05 E21.51631
G1 X104.795 Y94.936 E21.58781
G1 X105.552 Y94.902 E21.65942
G1 X106.308 Y94.948 E21.73099
G1 X107.055 Y95.073 E21.80257
G1 X107.848 Y95.298 E21.88046
G1 X111.5 Y96.565 E22.24576
G1 X115.152 Y95.298 E22.61105
G1 X115.88 Y95.088 E22.68265
G1 X116.625 Y94.956 E22.75415
G1 X117.381 Y94.903 E22.82577
G1 X118.138 Y94.93 E22.89735
G1 X118.888 Y95.037 E22.96894
G1 X119.622 Y95.222 E23.04047
G1 X120.333 Y95.484 E23.11208
G1 X121.012 Y95.819 E23.18363
G1 X121.707 Y96.262 E23.26152
G1 X121.855 Y96.369 E23.27877
G1 X122.444 Y96.845 E23.35034
G1 X122.98 Y97.38 E23.4219
G1 X123.457 Y97.968 E23.49346
G1 X123.869 Y98.604 E23.56507
G1 X124.212 Y99.279 E23.63662
G1 X124.481 Y99.987 E23.70819
G1 X124.675 Y100.719 E23.77975
G1 X124.79 Y101.468 E23.85136
G1 X124.825 Y102.324 E23.93232
G1 X124.75 Y106.189 E24.29763
G1 X127.084 Y109.273 E24.66312
G1 X127.508 Y109.9 E24.73465
G1 X127.864 Y110.569 E24.80627
G1 X128.148 Y111.271 E24.87783
G1 X128.356 Y111.999 E24.94938
G1 X128.486 Y112.745 E25.02094
G1 X128.537 Y113.501 E25.09254
G1 X128.508 Y114.258 E25.16413
G1 X128.399 Y115.007 E25.23566
G1 X128.181 Y115.838 E25.31684
G1 X128.124 Y116.012 E25.33414
G1 X127.851 Y116.718 E25.40568
G1 X127.505 Y117.391 E25.47719
G1 X127.089 Y118.025 E25.54885
G1 X126.609 Y118.611 E25.62043
G1 X126.07 Y119.143 E25.692
G1 X125.478 Y119.615 E25.76355
G1 X124.84 Y120.022 E25.83506
G1 X124.162 Y120.36 E25.90665
G1 X123.388 Y120.644 E25.98456
G1 X119.69 Y121.766 E26.34975
G1 X117.477 Y124.94 E26.71541
G1 X117.012 Y125.537 E26.78692
G1 X116.486 Y126.083 E26.85856
G1 X115.906 Y126.569 E26.93007
G1 X115.278 Y126.992 E27.00162
G1 X114.608 Y127.347 E27.07328
G1 X113.905 Y127.628 E27.14482
G1 X113.177 Y127.835 E27.21634
G1 X112.43 Y127.963 E27.28796
G1 X111.591 Y128.012 E27.36738
G1 X111.409 Y128.012 E27.38458
G1 X110.653 Y127.972 E27.45612
G1 X109.905 Y127.853 E27.5277
G1 X109.174 Y127.655 E27.59927
G1 X108.467 Y127.381 E27.67092
G1 X107.794 Y127.035 E27.74243
G1 X107.161 Y126.619 E27.81401
G1 X106.575 Y126.139 E27.8856
G1 X106.043 Y125.6 E27.95716
G1 X105.523 Y124.94 E28.03657
G1 X103.31 Y121.766 E28.40222
G1 X99.612 Y120.644 E28.76741
G1 X98.899 Y120.386 E28.83906
G1 X98.218 Y120.055 E28.91062
G1 X97.576 Y119.654 E28.98215
G1 X96.98 Y119.187 E29.0537
G1 X96.436 Y118.66 E29.12528
G1 X95.951 Y118.078 E29.19687
G1 X95.529 Y117.449 E29.26845
G1 X95.177 Y116.779 E29.33997
G1 X94.876 Y116.012 E29.41783
G1 X94.819 Y115.838 E29.43513
G1 X94.621 Y115.106 E29.50679
G1 X94.502 Y114.359 E29.57828
G1 X94.462 Y113.602 E29.64991
G1 X94.502 Y112.846 E29.72145
G1 X94.622 Y112.098 E29.79304
G1 X94.82 Y111.367 E29.86461
G1 X95.093 Y110.661 E29.93614
G1 X95.44 Y109.988 E30.0077
G1 X95.916 Y109.273 E30.08887
G1 X98.25 Y106.189 E30.45436
G1 X98.175 Y102.324 E30.81967
G1 X98.201 Y101.567 E30.89125
G1 X98.305 Y100.817 E30.9628
G1 X98.489 Y100.082 E31.0344
G1 X98.749 Y99.371 E31.10595
G1 X99.082 Y98.691 E31.1775
G1 X99.485 Y98.05 E31.24905
G1 X99.953 Y97.454 E31.32066
G1 X100.482 Y96.912 E31.39223
G0 F4500 X100.302 Y97.59
G1 F1800 X100.828 Y97.071 E31.46206
G1 X101.35 Y96.653 E31.52526
G1 X101.498 Y96.546 E31.54251
G1 X102.119 Y96.146 E31.61232
G1 X102.78 Y95.816 E31.68214
G1 X103.473 Y95.559 E31.75198
G1 X104.189 Y95.379 E31.82175
G1 X104.92 Y95.276 E31.89151
G1 X105.659 Y95.254 E31.96138
G1 X106.395 Y95.311 E32.03114
G1 X107.121 Y95.448 E32.10096
G1 X107.733 Y95.629 E32.16127
G1 X111.5 Y96.935 E32.53804
G1 X115.267 Y95.629 E32.9148
G1 X115.977 Y95.425 E32.98461
G1 X116.704 Y95.299 E33.05434
G1 X117.442 Y95.252 E33.12422
G1 X118.179 Y95.286 E33.19394
G1 X118.909 Y95.398 E33.26373
G1 X119.623 Y95.59 E33.3336
G1 X120.312 Y95.857 E33.40343
G1 X120.967 Y96.197 E33.47317
G1 X121.502 Y96.546 E33.53354
G1 X121.65 Y96.653 E33.55079
G1 X122.224 Y97.118 E33.6206
G1 X122.745 Y97.641 E33.69036
G1 X123.206 Y98.219 E33.76023
G1 X123.602 Y98.842 E33.82999
G1 X123.928 Y99.505 E33.89981
G1 X124.181 Y100.199 E33.96961
G1 X124.357 Y100.916 E34.03938
G1 X124.455 Y101.648 E34.10917
G1 X124.475 Y102.317 E34.17242
G1 X124.397 Y106.304 E34.54927
G1 X126.805 Y109.484 E34.92621
G1 X127.218 Y110.097 E34.99606
G1 X127.563 Y110.75 E35.06585
G1 X127.835 Y111.437 E35.13568
G1 X128.031 Y112.149 E35.20546
G1 X128.149 Y112.878 E35.27525
G1 X128.188 Y113.615 E35.345
G1 X128.147 Y114.353 E35.41484
G1 X128.026 Y115.082 E35.48468
G1 X127.849 Y115.729 E35.54806
G1 X127.792 Y115.903 E35.56537
G1 X127.524 Y116.591 E35.63514
G1 X127.184 Y117.247 E35.70497
G1 X126.775 Y117.862 E35.77476
G1 X126.301 Y118.429 E35.8446
G1 X125.769 Y118.941 E35.91438
G1 X125.185 Y119.393 E35.98416
G1 X124.556 Y119.78 E36.05395
G1 X123.888 Y120.096 E36.12378
G1 X123.287 Y120.309 E36.18404
G1 X119.472 Y121.466 E36.56077
G1 X117.19 Y124.74 E36.93791
G1 X116.736 Y125.322 E37.00766
G1 X116.221 Y125.852 E37.07749
G1 X115.652 Y126.323 E37.1473
G1 X115.035 Y126.729 E37.21709
G1 X114.378 Y127.067 E37.28691
G1 X113.689 Y127.332 E37.35668
G1 X112.974 Y127.52 E37.42654
G1 X112.244 Y127.631 E37.49632
G1 X111.591 Y127.662 E37.5581
G1 X111.409 Y127.662 E37.57529
G1 X110.671 Y127.622 E37.64514
G1 X109.943 Y127.503 E37.71485
G1 X109.231 Y127.305 E37.78468
G1 X108.545 Y127.032 E37.85446
G1 X107.892 Y126.686 E37.92429
G1 X107.28 Y126.272 E37.99412
G1 X106.717 Y125.794 E38.06391
G1 X106.209 Y125.258 E38.1337
G1 X105.81 Y124.74 E38.19548
G1 X103.528 Y121.466 E38.57262
G1 X99.713 Y120.309 E38.94935
G1 X99.019 Y120.057 E39.01912
G1 X98.356 Y119.731 E39.08894
G1 X97.732 Y119.335 E39.15878
G1 X97.155 Y118.875 E39.22851
G1 X96.631 Y118.354 E39.29834
G1 X96.166 Y117.78 E39.36815
G1 X95.766 Y117.16 E39.43788
G1 X95.435 Y116.499 E39.50773
G1 X95.208 Y115.903 E39.568
G1 X95.151 Y115.729 E39.58531
G1 X94.96 Y115.015 E39.65515
G1 X94.846 Y114.285 E39.72497
G1 X94.812 Y113.548 E39.79469
G1 X94.858 Y112.81 E39.86457
G1 X94.984 Y112.082 E39.93439
G1 X95.187 Y111.372 E40.00417
G1 X95.466 Y110.688 E40.07398
G1 X95.817 Y110.039 E40.14371
G1 X96.195 Y109.484 E40.20716
G1 X98.603 Y106.304 E40.58411
G1 X98.525 Y102.317 E40.96095
G1 X98.551 Y101.579 E41.03074
G1 X98.656 Y100.848 E41.10052
G1 X98.84 Y100.132 E41.17038
G1 X99.099 Y99.441 E41.24012
G1 X99.433 Y98.782 E41.30994
G1 X99.835 Y98.162 E41.37977
G1 X100.302 Y97.59 E41.44955
G0 F4500 X100.65 Y97.73
G1 F1800 X101.173 Y97.236 E41.51753
G1 X101.703 Y96.83 E41.58062
G1 X102.309 Y96.441 E41.64867
G1 X102.954 Y96.122 E41.71667
G1 X103.63 Y95.877 E41.78462
G1 X104.329 Y95.708 E41.85258
G1 X105.043 Y95.618 E41.92059
G1 X105.763 Y95.607 E41.98864
G1 X106.479 Y95.677 E42.05662
G1 X107.183 Y95.825 E42.1246
G1 X107.619 Y95.959 E42.16771
G1 X111.5 Y97.305 E42.55589
G1 X115.381 Y95.959 E42.94408
G1 X116.073 Y95.762 E43.01207
G1 X116.782 Y95.642 E43.08002
G1 X117.501 Y95.602 E43.14807
G1 X118.219 Y95.642 E43.21603
G1 X118.929 Y95.761 E43.28406
G1 X119.621 Y95.958 E43.35205
G1 X120.286 Y96.231 E43.41998
G1 X120.918 Y96.576 E43.48803
G1 X121.445 Y96.937 E43.54839
G1 X122.003 Y97.39 E43.61631
G1 X122.508 Y97.902 E43.68427
G1 X122.953 Y98.468 E43.75231
G1 X123.333 Y99.079 E43.82031
G1 X123.642 Y99.728 E43.88823
G1 X123.878 Y100.408 E43.95625
G1 X124.036 Y101.11 E44.02425
G1 X124.116 Y101.825 E44.09224
G1 X124.125 Y102.31 E44.13808
G1 X124.045 Y106.42 E44.52655
G1 X126.525 Y109.696 E44.91484
G1 X126.927 Y110.293 E44.98285
G1 X127.26 Y110.93 E45.05078
G1 X127.52 Y111.601 E45.11878
G1 X127.705 Y112.297 E45.18684
G1 X127.811 Y113.008 E45.25477
G1 X127.837 Y113.727 E45.32276
G1 X127.783 Y114.445 E45.3908
G1 X127.65 Y115.152 E45.45878
G1 X127.459 Y115.794 E45.52208
G1 X127.198 Y116.464 E45.59003
G1 X126.863 Y117.101 E45.65804
G1 X126.46 Y117.697 E45.72603
G1 X125.994 Y118.245 E45.79401
G1 X125.469 Y118.737 E45.862
G1 X124.893 Y119.168 E45.92999
G1 X124.273 Y119.533 E45.99798
G1 X123.617 Y119.827 E46.06591
G1 X123.185 Y119.974 E46.10903
G1 X119.255 Y121.166 E46.49712
G1 X116.903 Y124.54 E46.88579
G1 X116.459 Y125.106 E46.95377
G1 X115.956 Y125.62 E47.02173
G1 X115.398 Y126.074 E47.08971
G1 X114.794 Y126.464 E47.15766
G1 X114.15 Y126.785 E47.22565
G1 X113.474 Y127.032 E47.29367
G1 X112.775 Y127.203 E47.36167
G1 X112.061 Y127.295 E47.4297
G1 X111.409 Y127.312 E47.49134
G1 X110.691 Y127.272 E47.55929
G1 X109.981 Y127.153 E47.62732
G1 X109.289 Y126.955 E47.69534
G1 X108.624 Y126.682 E47.76327
G1 X107.992 Y126.337 E47.83132
G1 X107.403 Y125.924 E47.8993
G1 X106.864 Y125.448 E47.96725
G1 X106.38 Y124.916 E48.03522
G1 X106.097 Y124.54 E48.07969
G1 X103.745 Y121.166 E48.46836
G1 X99.815 Y119.974 E48.85645
G1 X99.139 Y119.728 E48.92443
G1 X98.495 Y119.407 E48.99243
G1 X97.89 Y119.018 E49.0604
G1 X97.332 Y118.563 E49.12844
G1 X96.828 Y118.05 E49.1964
G1 X96.384 Y117.484 E49.26438
G1 X96.006 Y116.872 E49.33236
G1 X95.698 Y116.222 E49.40033
G1 X95.484 Y115.62 E49.4607
G1 X95.298 Y114.925 E49.52869
G1 X95.191 Y114.213 E49.59673
G1 X95.163 Y113.494 E49.66473
G1 X95.215 Y112.777 E49.73266
G1 X95.346 Y112.069 E49.80071
G1 X95.556 Y111.381 E49.86868
G1 X95.84 Y110.72 E49.93667
G1 X96.195 Y110.095 E50.00459
G1 X96.475 Y109.696 E50.05066
G1 X98.955 Y106.42 E50.43894
G1 X98.875 Y102.31 E50.82741
G1 X98.901 Y101.591 E50.8954
